(G-CODE GENERATED BY FLATCAM v8.994 - www.flatcam.org - Version Date: 2020/11/7)

(Name: Drill_PTH_Through.DRL_edit_cnc)
(Type: G-code from Geometry)
(Units: MM)

(Created on Friday, 12 May 2023 at 11:15)


/TOOLS DIAMETER = ДИАМЕТР ИНСТРУМЕНТА: 
/Tool: 1 -> Dia: 0.8

/FEEDRATE Z = ПОДАЧА по Z: 
/Tool = Инструмент: 1 -> Feedrate = подача: 500.0

/FEEDRATE RAPIDS = БЫСТРЫЕ ПОДАЧИ: 
/Tool = Инструмент: 1 -> Feedrate Rapids = быстрая подача: 1500

/Z_CUT = ПРОХОДЫ по Z: 
/Tool = Инструмент: 1 -> Z_Cut: -1.7

/Tools Offset: 
/Tool: 1 -> Offset Z: 0.0

/Z_MOVE: 
/Tool: 1 -> Z_Move: 2

/Z Toolchange: 15 mm
/X,Y Toolchange: 0.0000, 0.0000 mm
/Z Start: None mm
/Z End: 0.5 mm
/X,Y End: None mm
(Steps per circle: 64)
/Steps per circle: 64
/Preprocessor Excellon: Charly4U

/X range:    6.0770 ...   90.6970  mm
/Y range:    5.6960 ...   43.7070  mm

/Скорость шпинделя: 15000 RPM
G71 / измерения в мм
G90 / программирование в абсолютных координатах

F500
/Tool switching while working is not supported! = Смена инструмента в процессе работы не поддерживается!
F500
M3 S15000
G0 X65.7860 Y43.3070
G1 Z-1.7000 F500
G1 Z0
G0 Z2.0000
G0 X65.7860 Y38.2270
G1 Z-1.7000 F500
G1 Z0
G0 Z2.0000
G0 X61.7220 Y37.9730
G1 Z-1.7000 F500
G1 Z0
G0 Z2.0000
G0 X59.1820 Y37.9730
G1 Z-1.7000 F500
G1 Z0
G0 Z2.0000
G0 X56.6420 Y37.9730
G1 Z-1.7000 F500
G1 Z0
G0 Z2.0000
G0 X54.1020 Y37.9730
G1 Z-1.7000 F500
G1 Z0
G0 Z2.0000
G0 X49.6570 Y37.8460
G1 Z-1.7000 F500
G1 Z0
G0 Z2.0000
G0 X49.6570 Y33.0200
G1 Z-1.7000 F500
G1 Z0
G0 Z2.0000
G0 X52.1970 Y33.0200
G1 Z-1.7000 F500
G1 Z0
G0 Z2.0000
G0 X54.7370 Y33.0200
G1 Z-1.7000 F500
G1 Z0
G0 Z2.0000
G0 X57.2770 Y33.0200
G1 Z-1.7000 F500
G1 Z0
G0 Z2.0000
G0 X59.8170 Y33.0200
G1 Z-1.7000 F500
G1 Z0
G0 Z2.0000
G0 X62.3570 Y33.0200
G1 Z-1.7000 F500
G1 Z0
G0 Z2.0000
G0 X64.8970 Y33.0200
G1 Z-1.7000 F500
G1 Z0
G0 Z2.0000
G0 X67.4370 Y33.0200
G1 Z-1.7000 F500
G1 Z0
G0 Z2.0000
G0 X69.9770 Y33.0200
G1 Z-1.7000 F500
G1 Z0
G0 Z2.0000
G0 X70.1040 Y38.6080
G1 Z-1.7000 F500
G1 Z0
G0 Z2.0000
G0 X72.6440 Y38.6080
G1 Z-1.7000 F500
G1 Z0
G0 Z2.0000
G0 X75.1840 Y38.6080
G1 Z-1.7000 F500
G1 Z0
G0 Z2.0000
G0 X77.7240 Y38.6080
G1 Z-1.7000 F500
G1 Z0
G0 Z2.0000
G0 X72.5170 Y33.0200
G1 Z-1.7000 F500
G1 Z0
G0 Z2.0000
G0 X75.0570 Y33.0200
G1 Z-1.7000 F500
G1 Z0
G0 Z2.0000
G0 X77.5970 Y33.0200
G1 Z-1.7000 F500
G1 Z0
G0 Z2.0000
G0 X80.1370 Y33.0200
G1 Z-1.7000 F500
G1 Z0
G0 Z2.0000
G0 X82.6770 Y33.0200
G1 Z-1.7000 F500
G1 Z0
G0 Z2.0000
G0 X85.2170 Y33.0200
G1 Z-1.7000 F500
G1 Z0
G0 Z2.0000
G0 X87.7570 Y33.0200
G1 Z-1.7000 F500
G1 Z0
G0 Z2.0000
G0 X90.2970 Y33.0200
G1 Z-1.7000 F500
G1 Z0
G0 Z2.0000
G0 X90.2970 Y18.1610
G1 Z-1.7000 F500
G1 Z0
G0 Z2.0000
G0 X87.7570 Y18.1610
G1 Z-1.7000 F500
G1 Z0
G0 Z2.0000
G0 X85.2170 Y18.1610
G1 Z-1.7000 F500
G1 Z0
G0 Z2.0000
G0 X82.6770 Y18.1610
G1 Z-1.7000 F500
G1 Z0
G0 Z2.0000
G0 X80.1370 Y18.1610
G1 Z-1.7000 F500
G1 Z0
G0 Z2.0000
G0 X77.5970 Y18.1610
G1 Z-1.7000 F500
G1 Z0
G0 Z2.0000
G0 X75.0570 Y18.1610
G1 Z-1.7000 F500
G1 Z0
G0 Z2.0000
G0 X72.5170 Y18.1610
G1 Z-1.7000 F500
G1 Z0
G0 Z2.0000
G0 X69.9770 Y18.1610
G1 Z-1.7000 F500
G1 Z0
G0 Z2.0000
G0 X67.4370 Y18.1610
G1 Z-1.7000 F500
G1 Z0
G0 Z2.0000
G0 X64.8970 Y18.1610
G1 Z-1.7000 F500
G1 Z0
G0 Z2.0000
G0 X62.3570 Y18.1610
G1 Z-1.7000 F500
G1 Z0
G0 Z2.0000
G0 X59.8170 Y18.1610
G1 Z-1.7000 F500
G1 Z0
G0 Z2.0000
G0 X57.2770 Y18.1610
G1 Z-1.7000 F500
G1 Z0
G0 Z2.0000
G0 X54.7370 Y18.1610
G1 Z-1.7000 F500
G1 Z0
G0 Z2.0000
G0 X52.1970 Y18.1610
G1 Z-1.7000 F500
G1 Z0
G0 Z2.0000
G0 X54.8640 Y14.3510
G1 Z-1.7000 F500
G1 Z0
G0 Z2.0000
G0 X53.4670 Y11.0490
G1 Z-1.7000 F500
G1 Z0
G0 Z2.0000
G0 X53.4670 Y6.2230
G1 Z-1.7000 F500
G1 Z0
G0 Z2.0000
G0 X50.9270 Y6.2230
G1 Z-1.7000 F500
G1 Z0
G0 Z2.0000
G0 X48.3870 Y6.2230
G1 Z-1.7000 F500
G1 Z0
G0 Z2.0000
G0 X44.7040 Y6.2230
G1 Z-1.7000 F500
G1 Z0
G0 Z2.0000
G0 X42.1640 Y6.2230
G1 Z-1.7000 F500
G1 Z0
G0 Z2.0000
G0 X43.3070 Y11.0490
G1 Z-1.7000 F500
G1 Z0
G0 Z2.0000
G0 X44.7040 Y14.3510
G1 Z-1.7000 F500
G1 Z0
G0 Z2.0000
G0 X49.6570 Y18.1610
G1 Z-1.7000 F500
G1 Z0
G0 Z2.0000
G0 X47.1170 Y18.1610
G1 Z-1.7000 F500
G1 Z0
G0 Z2.0000
G0 X44.5770 Y18.1610
G1 Z-1.7000 F500
G1 Z0
G0 Z2.0000
G0 X42.0370 Y18.1610
G1 Z-1.7000 F500
G1 Z0
G0 Z2.0000
G0 X29.4640 Y11.3030
G1 Z-1.7000 F500
G1 Z0
G0 Z2.0000
G0 X29.0830 Y6.0960
G1 Z-1.7000 F500
G1 Z0
G0 Z2.0000
G0 X24.5110 Y6.2230
G1 Z-1.7000 F500
G1 Z0
G0 Z2.0000
G0 X24.5110 Y8.7630
G1 Z-1.7000 F500
G1 Z0
G0 Z2.0000
G0 X24.5110 Y11.3030
G1 Z-1.7000 F500
G1 Z0
G0 Z2.0000
G0 X24.5110 Y13.8430
G1 Z-1.7000 F500
G1 Z0
G0 Z2.0000
G0 X24.5110 Y16.3830
G1 Z-1.7000 F500
G1 Z0
G0 Z2.0000
G0 X24.5110 Y18.9230
G1 Z-1.7000 F500
G1 Z0
G0 Z2.0000
G0 X24.5110 Y21.4630
G1 Z-1.7000 F500
G1 Z0
G0 Z2.0000
G0 X24.5110 Y24.0030
G1 Z-1.7000 F500
G1 Z0
G0 Z2.0000
G0 X21.0820 Y27.1780
G1 Z-1.7000 F500
G1 Z0
G0 Z2.0000
G0 X16.6370 Y27.3050
G1 Z-1.7000 F500
G1 Z0
G0 Z2.0000
G0 X12.7000 Y27.1780
G1 Z-1.7000 F500
G1 Z0
G0 Z2.0000
G0 X6.4770 Y6.3500
G1 Z-1.7000 F500
G1 Z0
G0 Z2.0000
G0 X6.4770 Y8.8900
G1 Z-1.7000 F500
G1 Z0
G0 Z2.0000
G0 X6.4770 Y11.4300
G1 Z-1.7000 F500
G1 Z0
G0 Z2.0000
G0 X6.4770 Y13.9700
G1 Z-1.7000 F500
G1 Z0
G0 Z2.0000
G0 X6.4770 Y16.5100
G1 Z-1.7000 F500
G1 Z0
G0 Z2.0000
G0 X6.4770 Y19.0500
G1 Z-1.7000 F500
G1 Z0
G0 Z2.0000
G0 X6.4770 Y21.5900
G1 Z-1.7000 F500
G1 Z0
G0 Z2.0000
G0 X6.4770 Y24.1300
G1 Z-1.7000 F500
G1 Z0
G0 Z2.0000
G0 X6.6040 Y33.0200
G1 Z-1.7000 F500
G1 Z0
G0 Z2.0000
G0 X12.7000 Y37.3380
G1 Z-1.7000 F500
G1 Z0
G0 Z2.0000
G0 X6.6040 Y43.1800
G1 Z-1.7000 F500
G1 Z0
G0 Z2.0000
G0 X12.1920 Y43.1800
G1 Z-1.7000 F500
G1 Z0
G0 Z2.0000
G0 X14.7320 Y43.1800
G1 Z-1.7000 F500
G1 Z0
G0 Z2.0000
G0 X17.2720 Y43.1800
G1 Z-1.7000 F500
G1 Z0
G0 Z2.0000
G0 X16.6370 Y37.4650
G1 Z-1.7000 F500
G1 Z0
G0 Z2.0000
G0 X21.0820 Y37.3380
G1 Z-1.7000 F500
G1 Z0
G0 Z2.0000
G0 X21.7170 Y43.0530
G1 Z-1.7000 F500
G1 Z0
G0 Z2.0000
G0 X40.6400 Y42.9260
G1 Z-1.7000 F500
G1 Z0
G0 Z2.0000
G0 X40.6400 Y40.3860
G1 Z-1.7000 F500
G1 Z0
G0 Z2.0000
G0 X40.6400 Y37.8460
G1 Z-1.7000 F500
G1 Z0
G0 Z2.0000
G0 X42.0370 Y33.0200
G1 Z-1.7000 F500
G1 Z0
G0 Z2.0000
G0 X44.5770 Y33.0200
G1 Z-1.7000 F500
G1 Z0
G0 Z2.0000
G0 X47.1170 Y33.0200
G1 Z-1.7000 F500
G1 Z0
G0 Z2.0000
G0 X45.3390 Y37.9730
G1 Z-1.7000 F500
G1 Z0
G0 Z2.0000
G0 X45.3390 Y40.5130
G1 Z-1.7000 F500
G1 Z0
G0 Z2.0000
G0 X49.6570 Y40.3860
G1 Z-1.7000 F500
G1 Z0
G0 Z2.0000
M5 / выключение шпинделя
G0 Z0.50 X0 Y0


