(G-CODE GENERATED BY FLATCAM v8.994 - www.flatcam.org - Version Date: 2020/11/7)

(Name: Gerber_TopLayer.GTL_iso_combined_cnc)
(Type: G-code from Geometry)
(Units: MM)

(Created on Friday, 12 May 2023 at 11:08)

/TOOL DIAMETER = ДИАМЕТР ИНСТРУМЕНТА: 0.2 mm
/Feedrate_XY = подача XY: 500.0 mm/min
/Feedrate_Z = подача Z: 500.0 mm/min
/Feedrate rapids = быстрая подача1500.0 mm/min

/Z_Cut = проходы по Z: 0.0 mm
/Z_Move: 2.0 mm
/Z Start: None mm
/Z End: 15.0 mm
/X,Y End: None mm
(Steps per circle: 64)
/Steps per circle: 64
/Preprocessor Geometry: Charly4U

/X range:    4.4842 ...   95.4601  mm
/Y range:    2.4569 ...   47.2001  mm

/Скорость шпинделя: 20000.0 RPM
G71 / измерения в мм
G90 / программирование в абсолютных координатах

F500
/Tool switching while working is not supported! = Смена инструмента в процессе работы не поддерживается!
M3 S20000.0
F500
G0 X7.3643 Y6.3549
F500
G1 Z0.0000 F500
F500
G1 X7.3601 Y6.4370
G1 X7.3473 Y6.5231
G1 X7.3262 Y6.6076
G1 X7.2969 Y6.6896
G1 X7.2596 Y6.7683
G1 X7.2148 Y6.8430
G1 X7.1630 Y6.9130
G1 X7.1045 Y6.9775
G1 X7.0400 Y7.0360
G1 X6.9700 Y7.0878
G1 X6.8953 Y7.1326
G1 X6.8166 Y7.1699
G1 X6.7346 Y7.1992
G1 X6.6501 Y7.2203
G1 X6.5640 Y7.2331
G1 X6.4770 Y7.2374
G1 X6.3900 Y7.2331
G1 X6.3039 Y7.2203
G1 X6.2194 Y7.1992
G1 X6.1374 Y7.1699
G1 X6.0587 Y7.1326
G1 X5.9840 Y7.0878
G1 X5.9140 Y7.0360
G1 X5.8495 Y6.9775
G1 X5.7910 Y6.9130
G1 X5.7392 Y6.8430
G1 X5.6944 Y6.7683
G1 X5.6571 Y6.6896
G1 X5.6278 Y6.6076
G1 X5.6067 Y6.5231
G1 X5.5939 Y6.4370
G1 X5.5896 Y6.3500
G1 X5.5939 Y6.2630
G1 X5.6067 Y6.1769
G1 X5.6278 Y6.0924
G1 X5.6571 Y6.0104
G1 X5.6944 Y5.9317
G1 X5.7392 Y5.8570
G1 X5.7910 Y5.7870
G1 X5.8495 Y5.7225
G1 X5.9140 Y5.6640
G1 X5.9840 Y5.6122
G1 X6.0587 Y5.5674
G1 X6.1374 Y5.5301
G1 X6.2194 Y5.5008
G1 X6.3039 Y5.4797
G1 X6.3900 Y5.4669
G1 X6.4770 Y5.4626
G1 X6.5640 Y5.4669
G1 X6.6501 Y5.4797
G1 X6.7346 Y5.5008
G1 X6.8166 Y5.5301
G1 X6.8953 Y5.5674
G1 X6.9700 Y5.6122
G1 X7.0400 Y5.6640
G1 X7.1045 Y5.7225
G1 X7.1630 Y5.7870
G1 X7.2148 Y5.8570
G1 X7.2596 Y5.9317
G1 X7.2969 Y6.0104
G1 X7.3262 Y6.0924
G1 X7.3473 Y6.1769
G1 X7.3601 Y6.2630
G1 X7.3643 Y6.3451
G1 X7.3643 Y6.3549
G0 Z2.0000
G0 X7.5441 Y6.3637
F500
G1 Z0.0000 F500
F500
G1 X7.5403 Y6.4409
G1 X7.5393 Y6.4546
G1 X7.5376 Y6.4683
G1 X7.5262 Y6.5447
G1 X7.5239 Y6.5582
G1 X7.5209 Y6.5716
G1 X7.5021 Y6.6466
G1 X7.4984 Y6.6598
G1 X7.4941 Y6.6729
G1 X7.4681 Y6.7457
G1 X7.4631 Y6.7585
G1 X7.4576 Y6.7710
G1 X7.4245 Y6.8409
G1 X7.4184 Y6.8532
G1 X7.4116 Y6.8651
G1 X7.3719 Y6.9314
G1 X7.3645 Y6.9430
G1 X7.3566 Y6.9543
G1 X7.3106 Y7.0163
G1 X7.3021 Y7.0272
G1 X7.2931 Y7.0376
G1 X7.2412 Y7.0948
G1 X7.2318 Y7.1048
G1 X7.2218 Y7.1142
G1 X7.1646 Y7.1661
G1 X7.1542 Y7.1751
G1 X7.1433 Y7.1836
G1 X7.0813 Y7.2296
G1 X7.0700 Y7.2375
G1 X7.0584 Y7.2449
G1 X6.9921 Y7.2846
G1 X6.9802 Y7.2914
G1 X6.9679 Y7.2975
G1 X6.8980 Y7.3306
G1 X6.8855 Y7.3361
G1 X6.8727 Y7.3411
G1 X6.7999 Y7.3671
G1 X6.7868 Y7.3714
G1 X6.7736 Y7.3751
G1 X6.6986 Y7.3939
G1 X6.6852 Y7.3969
G1 X6.6717 Y7.3992
G1 X6.5953 Y7.4106
G1 X6.5816 Y7.4123
G1 X6.5679 Y7.4133
G1 X6.4907 Y7.4171
G1 X6.4770 Y7.4174
G1 X6.4633 Y7.4171
G1 X6.3861 Y7.4133
G1 X6.3724 Y7.4123
G1 X6.3587 Y7.4106
G1 X6.2823 Y7.3992
G1 X6.2688 Y7.3969
G1 X6.2554 Y7.3939
G1 X6.1804 Y7.3751
G1 X6.1672 Y7.3714
G1 X6.1541 Y7.3671
G1 X6.0813 Y7.3411
G1 X6.0685 Y7.3361
G1 X6.0560 Y7.3306
G1 X5.9861 Y7.2975
G1 X5.9738 Y7.2914
G1 X5.9619 Y7.2846
G1 X5.8956 Y7.2449
G1 X5.8840 Y7.2375
G1 X5.8727 Y7.2296
G1 X5.8107 Y7.1836
G1 X5.7998 Y7.1751
G1 X5.7894 Y7.1661
G1 X5.7322 Y7.1142
G1 X5.7222 Y7.1048
G1 X5.7128 Y7.0948
G1 X5.6609 Y7.0376
G1 X5.6519 Y7.0272
G1 X5.6434 Y7.0163
G1 X5.5974 Y6.9543
G1 X5.5895 Y6.9430
G1 X5.5821 Y6.9314
G1 X5.5424 Y6.8651
G1 X5.5356 Y6.8532
G1 X5.5295 Y6.8409
G1 X5.4964 Y6.7710
G1 X5.4909 Y6.7585
G1 X5.4859 Y6.7457
G1 X5.4599 Y6.6729
G1 X5.4556 Y6.6598
G1 X5.4519 Y6.6466
G1 X5.4331 Y6.5716
G1 X5.4301 Y6.5582
G1 X5.4278 Y6.5447
G1 X5.4164 Y6.4683
G1 X5.4147 Y6.4546
G1 X5.4137 Y6.4409
G1 X5.4099 Y6.3637
G1 X5.4096 Y6.3500
G1 X5.4099 Y6.3363
G1 X5.4137 Y6.2591
G1 X5.4147 Y6.2454
G1 X5.4164 Y6.2317
G1 X5.4278 Y6.1553
G1 X5.4301 Y6.1418
G1 X5.4331 Y6.1284
G1 X5.4519 Y6.0534
G1 X5.4556 Y6.0402
G1 X5.4599 Y6.0271
G1 X5.4859 Y5.9543
G1 X5.4909 Y5.9415
G1 X5.4964 Y5.9290
G1 X5.5295 Y5.8591
G1 X5.5356 Y5.8468
G1 X5.5424 Y5.8349
G1 X5.5821 Y5.7686
G1 X5.5895 Y5.7570
G1 X5.5974 Y5.7457
G1 X5.6434 Y5.6837
G1 X5.6519 Y5.6728
G1 X5.6609 Y5.6624
G1 X5.7128 Y5.6052
G1 X5.7222 Y5.5952
G1 X5.7322 Y5.5858
G1 X5.7894 Y5.5339
G1 X5.7998 Y5.5249
G1 X5.8107 Y5.5164
G1 X5.8727 Y5.4704
G1 X5.8840 Y5.4625
G1 X5.8956 Y5.4551
G1 X5.9619 Y5.4154
G1 X5.9738 Y5.4086
G1 X5.9861 Y5.4025
G1 X6.0560 Y5.3694
G1 X6.0685 Y5.3639
G1 X6.0813 Y5.3589
G1 X6.1541 Y5.3329
G1 X6.1672 Y5.3286
G1 X6.1804 Y5.3249
G1 X6.2554 Y5.3061
G1 X6.2688 Y5.3031
G1 X6.2823 Y5.3008
G1 X6.3587 Y5.2894
G1 X6.3724 Y5.2877
G1 X6.3861 Y5.2867
G1 X6.4633 Y5.2829
G1 X6.4770 Y5.2826
G1 X6.4907 Y5.2829
G1 X6.5679 Y5.2867
G1 X6.5816 Y5.2877
G1 X6.5953 Y5.2894
G1 X6.6717 Y5.3008
G1 X6.6852 Y5.3031
G1 X6.6986 Y5.3061
G1 X6.7736 Y5.3249
G1 X6.7868 Y5.3286
G1 X6.7999 Y5.3329
G1 X6.8727 Y5.3589
G1 X6.8855 Y5.3639
G1 X6.8980 Y5.3694
G1 X6.9679 Y5.4025
G1 X6.9802 Y5.4086
G1 X6.9921 Y5.4154
G1 X7.0584 Y5.4551
G1 X7.0700 Y5.4625
G1 X7.0813 Y5.4704
G1 X7.1433 Y5.5164
G1 X7.1542 Y5.5249
G1 X7.1646 Y5.5339
G1 X7.2218 Y5.5858
G1 X7.2318 Y5.5952
G1 X7.2412 Y5.6052
G1 X7.2931 Y5.6624
G1 X7.3021 Y5.6728
G1 X7.3106 Y5.6837
G1 X7.3566 Y5.7457
G1 X7.3645 Y5.7570
G1 X7.3719 Y5.7686
G1 X7.4116 Y5.8349
G1 X7.4184 Y5.8468
G1 X7.4245 Y5.8591
G1 X7.4576 Y5.9290
G1 X7.4631 Y5.9415
G1 X7.4681 Y5.9543
G1 X7.4941 Y6.0271
G1 X7.4984 Y6.0402
G1 X7.5021 Y6.0534
G1 X7.5209 Y6.1284
G1 X7.5239 Y6.1418
G1 X7.5262 Y6.1553
G1 X7.5376 Y6.2317
G1 X7.5393 Y6.2454
G1 X7.5403 Y6.2591
G1 X7.5441 Y6.3363
G1 X7.5444 Y6.3500
G1 X7.5441 Y6.3637
G0 Z2.0000
G0 X7.7238 Y6.3726
F500
G1 Z0.0000 F500
F500
G1 X7.7201 Y6.4497
G1 X7.7184 Y6.4723
G1 X7.7156 Y6.4947
G1 X7.7043 Y6.5711
G1 X7.7004 Y6.5934
G1 X7.6955 Y6.6154
G1 X7.6767 Y6.6903
G1 X7.6707 Y6.7121
G1 X7.6636 Y6.7335
G1 X7.6376 Y6.8063
G1 X7.6294 Y6.8274
G1 X7.6203 Y6.8480
G1 X7.5873 Y6.9179
G1 X7.5771 Y6.9380
G1 X7.5660 Y6.9577
G1 X7.5263 Y7.0239
G1 X7.5142 Y7.0430
G1 X7.5012 Y7.0615
G1 X7.4551 Y7.1235
G1 X7.4413 Y7.1413
G1 X7.4265 Y7.1584
G1 X7.3746 Y7.2157
G1 X7.3590 Y7.2320
G1 X7.3427 Y7.2476
G1 X7.2854 Y7.2995
G1 X7.2683 Y7.3143
G1 X7.2505 Y7.3281
G1 X7.1885 Y7.3742
G1 X7.1700 Y7.3872
G1 X7.1509 Y7.3993
G1 X7.0847 Y7.4390
G1 X7.0650 Y7.4501
G1 X7.0449 Y7.4603
G1 X6.9750 Y7.4933
G1 X6.9544 Y7.5024
G1 X6.9333 Y7.5106
G1 X6.8605 Y7.5366
G1 X6.8391 Y7.5437
G1 X6.8173 Y7.5497
G1 X6.7424 Y7.5685
G1 X6.7204 Y7.5734
G1 X6.6981 Y7.5773
G1 X6.6217 Y7.5886
G1 X6.5993 Y7.5914
G1 X6.5767 Y7.5931
G1 X6.4996 Y7.5968
G1 X6.4770 Y7.5974
G1 X6.4544 Y7.5968
G1 X6.3773 Y7.5931
G1 X6.3547 Y7.5914
G1 X6.3323 Y7.5886
G1 X6.2559 Y7.5773
G1 X6.2336 Y7.5734
G1 X6.2116 Y7.5685
G1 X6.1367 Y7.5497
G1 X6.1149 Y7.5437
G1 X6.0935 Y7.5366
G1 X6.0207 Y7.5106
G1 X5.9996 Y7.5024
G1 X5.9790 Y7.4933
G1 X5.9091 Y7.4603
G1 X5.8890 Y7.4501
G1 X5.8693 Y7.4390
G1 X5.8031 Y7.3993
G1 X5.7840 Y7.3872
G1 X5.7655 Y7.3742
G1 X5.7035 Y7.3281
G1 X5.6857 Y7.3143
G1 X5.6686 Y7.2995
G1 X5.6113 Y7.2476
G1 X5.5950 Y7.2320
G1 X5.5794 Y7.2157
G1 X5.5275 Y7.1584
G1 X5.5127 Y7.1413
G1 X5.4989 Y7.1235
G1 X5.4528 Y7.0615
G1 X5.4398 Y7.0430
G1 X5.4277 Y7.0239
G1 X5.3880 Y6.9577
G1 X5.3769 Y6.9380
G1 X5.3667 Y6.9179
G1 X5.3337 Y6.8480
G1 X5.3246 Y6.8274
G1 X5.3164 Y6.8063
G1 X5.2904 Y6.7335
G1 X5.2833 Y6.7121
G1 X5.2773 Y6.6903
G1 X5.2585 Y6.6154
G1 X5.2536 Y6.5934
G1 X5.2497 Y6.5711
G1 X5.2384 Y6.4947
G1 X5.2356 Y6.4723
G1 X5.2339 Y6.4497
G1 X5.2302 Y6.3726
G1 X5.2296 Y6.3500
G1 X5.2302 Y6.3274
G1 X5.2339 Y6.2503
G1 X5.2356 Y6.2277
G1 X5.2384 Y6.2053
G1 X5.2497 Y6.1289
G1 X5.2536 Y6.1066
G1 X5.2585 Y6.0846
G1 X5.2773 Y6.0097
G1 X5.2833 Y5.9879
G1 X5.2904 Y5.9665
G1 X5.3164 Y5.8937
G1 X5.3246 Y5.8726
G1 X5.3337 Y5.8520
G1 X5.3667 Y5.7821
G1 X5.3769 Y5.7620
G1 X5.3880 Y5.7423
G1 X5.4277 Y5.6761
G1 X5.4398 Y5.6570
G1 X5.4528 Y5.6385
G1 X5.4989 Y5.5765
G1 X5.5127 Y5.5587
G1 X5.5275 Y5.5416
G1 X5.5794 Y5.4843
G1 X5.5950 Y5.4680
G1 X5.6113 Y5.4524
G1 X5.6686 Y5.4005
G1 X5.6857 Y5.3857
G1 X5.7035 Y5.3719
G1 X5.7655 Y5.3258
G1 X5.7840 Y5.3128
G1 X5.8031 Y5.3007
G1 X5.8693 Y5.2610
G1 X5.8890 Y5.2499
G1 X5.9091 Y5.2397
G1 X5.9790 Y5.2067
G1 X5.9996 Y5.1976
G1 X6.0207 Y5.1894
G1 X6.0935 Y5.1634
G1 X6.1149 Y5.1563
G1 X6.1367 Y5.1503
G1 X6.2116 Y5.1315
G1 X6.2336 Y5.1266
G1 X6.2559 Y5.1227
G1 X6.3323 Y5.1114
G1 X6.3547 Y5.1086
G1 X6.3773 Y5.1069
G1 X6.4544 Y5.1032
G1 X6.4770 Y5.1026
G1 X6.4996 Y5.1032
G1 X6.5767 Y5.1069
G1 X6.5993 Y5.1086
G1 X6.6217 Y5.1114
G1 X6.6981 Y5.1227
G1 X6.7204 Y5.1266
G1 X6.7424 Y5.1315
G1 X6.8173 Y5.1503
G1 X6.8391 Y5.1563
G1 X6.8605 Y5.1634
G1 X6.9333 Y5.1894
G1 X6.9544 Y5.1976
G1 X6.9750 Y5.2067
G1 X7.0449 Y5.2397
G1 X7.0650 Y5.2499
G1 X7.0847 Y5.2610
G1 X7.1509 Y5.3007
G1 X7.1700 Y5.3128
G1 X7.1885 Y5.3258
G1 X7.2505 Y5.3719
G1 X7.2683 Y5.3857
G1 X7.2854 Y5.4005
G1 X7.3427 Y5.4524
G1 X7.3590 Y5.4680
G1 X7.3746 Y5.4843
G1 X7.4265 Y5.5416
G1 X7.4413 Y5.5587
G1 X7.4551 Y5.5765
G1 X7.5012 Y5.6385
G1 X7.5142 Y5.6570
G1 X7.5263 Y5.6761
G1 X7.5660 Y5.7423
G1 X7.5771 Y5.7620
G1 X7.5873 Y5.7821
G1 X7.6203 Y5.8520
G1 X7.6294 Y5.8726
G1 X7.6376 Y5.8937
G1 X7.6636 Y5.9665
G1 X7.6707 Y5.9879
G1 X7.6767 Y6.0097
G1 X7.6955 Y6.0846
G1 X7.7004 Y6.1066
G1 X7.7043 Y6.1289
G1 X7.7156 Y6.2053
G1 X7.7184 Y6.2277
G1 X7.7201 Y6.2503
G1 X7.7238 Y6.3274
G1 X7.7244 Y6.3500
G1 X7.7238 Y6.3726
G0 Z2.0000
G0 X7.9036 Y6.3814
F500
G1 Z0.0000 F500
F500
G1 X7.8998 Y6.4586
G1 X7.8975 Y6.4899
G1 X7.8937 Y6.5211
G1 X7.8823 Y6.5975
G1 X7.8798 Y6.6130
G1 X7.8737 Y6.6438
G1 X7.8513 Y6.7341
G1 X7.8429 Y6.7644
G1 X7.8331 Y6.7942
G1 X7.8016 Y6.8817
G1 X7.7957 Y6.8962
G1 X7.7830 Y6.9250
G1 X7.7500 Y6.9948
G1 X7.7359 Y7.0229
G1 X7.7204 Y7.0502
G1 X7.6724 Y7.1299
G1 X7.6550 Y7.1560
G1 X7.5997 Y7.2308
G1 X7.5804 Y7.2555
G1 X7.5703 Y7.2676
G1 X7.5080 Y7.3366
G1 X7.4863 Y7.3593
G1 X7.4636 Y7.3810
G1 X7.4063 Y7.4329
G1 X7.3825 Y7.4534
G1 X7.3703 Y7.4632
G1 X7.2957 Y7.5188
G1 X7.2700 Y7.5368
G1 X7.2435 Y7.5536
G1 X7.1772 Y7.5934
G1 X7.1499 Y7.6089
G1 X7.1279 Y7.6200
G1 X7.1499 Y7.6311
G1 X7.1772 Y7.6466
G1 X7.2435 Y7.6864
G1 X7.2700 Y7.7032
G1 X7.2957 Y7.7212
G1 X7.3703 Y7.7768
G1 X7.3946 Y7.7967
G1 X7.4063 Y7.8071
G1 X7.4636 Y7.8590
G1 X7.4863 Y7.8807
G1 X7.5080 Y7.9034
G1 X7.5703 Y7.9724
G1 X7.5902 Y7.9967
G1 X7.6458 Y8.0713
G1 X7.6550 Y8.0840
G1 X7.6724 Y8.1101
G1 X7.7204 Y8.1898
G1 X7.7359 Y8.2171
G1 X7.7500 Y8.2452
G1 X7.7830 Y8.3150
G1 X7.7957 Y8.3438
G1 X7.8016 Y8.3583
G1 X7.8331 Y8.4458
G1 X7.8429 Y8.4756
G1 X7.8513 Y8.5059
G1 X7.8737 Y8.5962
G1 X7.8798 Y8.6270
G1 X7.8823 Y8.6425
G1 X7.8937 Y8.7189
G1 X7.8975 Y8.7501
G1 X7.8998 Y8.7814
G1 X7.9036 Y8.8586
G1 X7.9044 Y8.8900
G1 X7.9042 Y8.9057
G1 X7.8998 Y8.9986
G1 X7.8975 Y9.0299
G1 X7.8937 Y9.0611
G1 X7.8798 Y9.1530
G1 X7.8770 Y9.1685
G1 X7.8701 Y9.1991
G1 X7.8513 Y9.2741
G1 X7.8429 Y9.3044
G1 X7.8331 Y9.3342
G1 X7.8016 Y9.4217
G1 X7.7896 Y9.4507
G1 X7.7500 Y9.5348
G1 X7.7359 Y9.5629
G1 X7.7204 Y9.5902
G1 X7.6806 Y9.6565
G1 X7.6638 Y9.6830
G1 X7.6458 Y9.7087
G1 X7.5902 Y9.7833
G1 X7.5703 Y9.8076
G1 X7.5080 Y9.8766
G1 X7.4973 Y9.8881
G1 X7.4751 Y9.9103
G1 X7.4063 Y9.9729
G1 X7.3825 Y9.9934
G1 X7.3578 Y10.0127
G1 X7.2830 Y10.0680
G1 X7.2569 Y10.0854
G1 X7.1772 Y10.1334
G1 X7.1499 Y10.1489
G1 X7.1279 Y10.1600
G1 X7.1499 Y10.1711
G1 X7.1772 Y10.1866
G1 X7.2435 Y10.2264
G1 X7.2700 Y10.2432
G1 X7.2957 Y10.2612
G1 X7.3703 Y10.3168
G1 X7.3946 Y10.3367
G1 X7.4063 Y10.3471
G1 X7.4636 Y10.3990
G1 X7.4863 Y10.4207
G1 X7.5080 Y10.4434
G1 X7.5599 Y10.5007
G1 X7.5703 Y10.5124
G1 X7.5902 Y10.5367
G1 X7.6458 Y10.6113
G1 X7.6638 Y10.6370
G1 X7.6806 Y10.6635
G1 X7.7283 Y10.7434
G1 X7.7359 Y10.7571
G1 X7.7500 Y10.7852
G1 X7.7830 Y10.8550
G1 X7.7957 Y10.8838
G1 X7.8071 Y10.9131
G1 X7.8331 Y10.9858
G1 X7.8382 Y11.0007
G1 X7.8473 Y11.0307
G1 X7.8701 Y11.1209
G1 X7.8770 Y11.1515
G1 X7.8823 Y11.1825
G1 X7.8958 Y11.2745
G1 X7.8975 Y11.2901
G1 X7.8998 Y11.3214
G1 X7.9036 Y11.3986
G1 X7.9044 Y11.4300
G1 X7.9036 Y11.4614
G1 X7.8989 Y11.5543
G1 X7.8958 Y11.5855
G1 X7.8823 Y11.6775
G1 X7.8770 Y11.7085
G1 X7.8737 Y11.7238
G1 X7.8513 Y11.8141
G1 X7.8429 Y11.8444
G1 X7.8331 Y11.8742
G1 X7.8071 Y11.9469
G1 X7.7957 Y11.9762
G1 X7.7830 Y12.0050
G1 X7.7431 Y12.0889
G1 X7.7283 Y12.1166
G1 X7.6806 Y12.1965
G1 X7.6638 Y12.2230
G1 X7.6458 Y12.2487
G1 X7.5997 Y12.3108
G1 X7.5804 Y12.3355
G1 X7.5599 Y12.3593
G1 X7.4973 Y12.4281
G1 X7.4751 Y12.4503
G1 X7.4063 Y12.5129
G1 X7.3825 Y12.5334
G1 X7.3578 Y12.5527
G1 X7.2830 Y12.6080
G1 X7.2569 Y12.6254
G1 X7.1772 Y12.6734
G1 X7.1499 Y12.6889
G1 X7.1279 Y12.7000
G1 X7.1499 Y12.7111
G1 X7.1772 Y12.7266
G1 X7.2435 Y12.7664
G1 X7.2700 Y12.7832
G1 X7.2957 Y12.8012
G1 X7.3703 Y12.8568
G1 X7.3946 Y12.8767
G1 X7.4063 Y12.8871
G1 X7.4636 Y12.9390
G1 X7.4863 Y12.9607
G1 X7.5080 Y12.9834
G1 X7.5599 Y13.0407
G1 X7.5703 Y13.0524
G1 X7.5902 Y13.0767
G1 X7.6458 Y13.1513
G1 X7.6638 Y13.1770
G1 X7.6806 Y13.2035
G1 X7.7283 Y13.2834
G1 X7.7359 Y13.2971
G1 X7.7500 Y13.3252
G1 X7.7830 Y13.3950
G1 X7.7957 Y13.4238
G1 X7.8071 Y13.4531
G1 X7.8331 Y13.5258
G1 X7.8382 Y13.5407
G1 X7.8473 Y13.5707
G1 X7.8701 Y13.6609
G1 X7.8770 Y13.6915
G1 X7.8823 Y13.7225
G1 X7.8937 Y13.7989
G1 X7.8975 Y13.8301
G1 X7.8989 Y13.8457
G1 X7.9036 Y13.9386
G1 X7.9044 Y13.9700
G1 X7.9036 Y14.0014
G1 X7.8998 Y14.0786
G1 X7.8975 Y14.1099
G1 X7.8958 Y14.1255
G1 X7.8823 Y14.2175
G1 X7.8770 Y14.2485
G1 X7.8701 Y14.2791
G1 X7.8513 Y14.3541
G1 X7.8429 Y14.3844
G1 X7.8331 Y14.4142
G1 X7.8071 Y14.4869
G1 X7.7957 Y14.5162
G1 X7.7830 Y14.5450
G1 X7.7431 Y14.6289
G1 X7.7283 Y14.6566
G1 X7.6806 Y14.7365
G1 X7.6638 Y14.7630
G1 X7.6458 Y14.7887
G1 X7.5997 Y14.8508
G1 X7.5804 Y14.8755
G1 X7.5599 Y14.8993
G1 X7.4973 Y14.9681
G1 X7.4751 Y14.9903
G1 X7.4063 Y15.0529
G1 X7.3825 Y15.0734
G1 X7.3578 Y15.0927
G1 X7.2830 Y15.1480
G1 X7.2569 Y15.1654
G1 X7.1772 Y15.2134
G1 X7.1499 Y15.2289
G1 X7.1279 Y15.2400
G1 X7.1499 Y15.2511
G1 X7.1772 Y15.2666
G1 X7.2435 Y15.3064
G1 X7.2700 Y15.3232
G1 X7.2957 Y15.3412
G1 X7.3578 Y15.3873
G1 X7.3825 Y15.4066
G1 X7.4063 Y15.4271
G1 X7.4636 Y15.4790
G1 X7.4751 Y15.4897
G1 X7.4973 Y15.5119
G1 X7.5703 Y15.5924
G1 X7.5902 Y15.6167
G1 X7.5997 Y15.6292
G1 X7.6458 Y15.6913
G1 X7.6638 Y15.7170
G1 X7.6806 Y15.7435
G1 X7.7204 Y15.8098
G1 X7.7359 Y15.8371
G1 X7.7431 Y15.8511
G1 X7.7830 Y15.9350
G1 X7.7957 Y15.9638
G1 X7.8016 Y15.9783
G1 X7.8382 Y16.0807
G1 X7.8473 Y16.1107
G1 X7.8513 Y16.1259
G1 X7.8701 Y16.2009
G1 X7.8770 Y16.2315
G1 X7.8823 Y16.2625
G1 X7.8937 Y16.3389
G1 X7.8975 Y16.3701
G1 X7.8998 Y16.4014
G1 X7.9036 Y16.4786
G1 X7.9044 Y16.5100
G1 X7.9036 Y16.5414
G1 X7.8989 Y16.6343
G1 X7.8975 Y16.6499
G1 X7.8937 Y16.6811
G1 X7.8823 Y16.7575
G1 X7.8770 Y16.7885
G1 X7.8701 Y16.8191
G1 X7.8513 Y16.8941
G1 X7.8429 Y16.9244
G1 X7.8331 Y16.9542
G1 X7.8071 Y17.0269
G1 X7.7957 Y17.0562
G1 X7.7830 Y17.0850
G1 X7.7500 Y17.1548
G1 X7.7359 Y17.1829
G1 X7.7204 Y17.2102
G1 X7.6724 Y17.2899
G1 X7.6638 Y17.3030
G1 X7.6458 Y17.3287
G1 X7.5997 Y17.3908
G1 X7.5804 Y17.4155
G1 X7.5599 Y17.4393
G1 X7.5080 Y17.4966
G1 X7.4863 Y17.5193
G1 X7.4636 Y17.5410
G1 X7.4063 Y17.5929
G1 X7.3825 Y17.6134
G1 X7.3578 Y17.6327
G1 X7.2957 Y17.6788
G1 X7.2700 Y17.6968
G1 X7.2435 Y17.7136
G1 X7.1636 Y17.7613
G1 X7.1499 Y17.7689
G1 X7.1279 Y17.7800
G1 X7.1499 Y17.7911
G1 X7.1636 Y17.7987
G1 X7.2435 Y17.8464
G1 X7.2700 Y17.8632
G1 X7.2957 Y17.8812
G1 X7.3578 Y17.9273
G1 X7.3825 Y17.9466
G1 X7.4063 Y17.9671
G1 X7.4636 Y18.0190
G1 X7.4863 Y18.0407
G1 X7.5080 Y18.0634
G1 X7.5599 Y18.1207
G1 X7.5804 Y18.1445
G1 X7.5997 Y18.1692
G1 X7.6458 Y18.2313
G1 X7.6638 Y18.2570
G1 X7.6724 Y18.2701
G1 X7.7204 Y18.3498
G1 X7.7359 Y18.3771
G1 X7.7500 Y18.4052
G1 X7.7896 Y18.4893
G1 X7.8016 Y18.5183
G1 X7.8071 Y18.5331
G1 X7.8331 Y18.6058
G1 X7.8429 Y18.6356
G1 X7.8513 Y18.6659
G1 X7.8701 Y18.7409
G1 X7.8770 Y18.7715
G1 X7.8823 Y18.8025
G1 X7.8937 Y18.8789
G1 X7.8975 Y18.9101
G1 X7.8998 Y18.9414
G1 X7.9036 Y19.0186
G1 X7.9044 Y19.0500
G1 X7.9036 Y19.0814
G1 X7.8989 Y19.1743
G1 X7.8958 Y19.2055
G1 X7.8798 Y19.3130
G1 X7.8737 Y19.3438
G1 X7.8701 Y19.3591
G1 X7.8513 Y19.4341
G1 X7.8429 Y19.4644
G1 X7.8331 Y19.4942
G1 X7.8071 Y19.5669
G1 X7.8016 Y19.5817
G1 X7.7896 Y19.6107
G1 X7.7500 Y19.6948
G1 X7.7359 Y19.7229
G1 X7.7204 Y19.7502
G1 X7.6806 Y19.8165
G1 X7.6724 Y19.8299
G1 X7.6550 Y19.8560
G1 X7.5997 Y19.9308
G1 X7.5804 Y19.9555
G1 X7.5599 Y19.9793
G1 X7.5080 Y20.0366
G1 X7.4863 Y20.0593
G1 X7.4751 Y20.0703
G1 X7.3946 Y20.1433
G1 X7.3703 Y20.1632
G1 X7.3578 Y20.1727
G1 X7.2957 Y20.2188
G1 X7.2700 Y20.2368
G1 X7.2435 Y20.2536
G1 X7.1772 Y20.2934
G1 X7.1499 Y20.3089
G1 X7.1279 Y20.3200
G1 X7.1499 Y20.3311
G1 X7.1772 Y20.3466
G1 X7.2435 Y20.3864
G1 X7.2700 Y20.4032
G1 X7.2957 Y20.4212
G1 X7.3578 Y20.4673
G1 X7.3825 Y20.4866
G1 X7.4063 Y20.5071
G1 X7.4636 Y20.5590
G1 X7.4863 Y20.5807
G1 X7.4973 Y20.5919
G1 X7.5703 Y20.6724
G1 X7.5902 Y20.6967
G1 X7.5997 Y20.7092
G1 X7.6458 Y20.7713
G1 X7.6638 Y20.7970
G1 X7.6806 Y20.8235
G1 X7.7204 Y20.8898
G1 X7.7359 Y20.9171
G1 X7.7431 Y20.9311
G1 X7.7896 Y21.0293
G1 X7.8016 Y21.0583
G1 X7.8071 Y21.0731
G1 X7.8331 Y21.1458
G1 X7.8429 Y21.1756
G1 X7.8513 Y21.2059
G1 X7.8701 Y21.2809
G1 X7.8737 Y21.2962
G1 X7.8798 Y21.3270
G1 X7.8937 Y21.4189
G1 X7.8975 Y21.4501
G1 X7.8998 Y21.4814
G1 X7.9036 Y21.5586
G1 X7.9042 Y21.5743
G1 X7.9042 Y21.6057
G1 X7.8998 Y21.6986
G1 X7.8975 Y21.7299
G1 X7.8937 Y21.7611
G1 X7.8798 Y21.8530
G1 X7.8737 Y21.8838
G1 X7.8701 Y21.8991
G1 X7.8513 Y21.9741
G1 X7.8429 Y22.0044
G1 X7.8331 Y22.0342
G1 X7.8016 Y22.1217
G1 X7.7896 Y22.1507
G1 X7.7500 Y22.2348
G1 X7.7431 Y22.2489
G1 X7.7283 Y22.2766
G1 X7.6806 Y22.3565
G1 X7.6638 Y22.3830
G1 X7.6458 Y22.4087
G1 X7.5997 Y22.4708
G1 X7.5902 Y22.4833
G1 X7.5703 Y22.5076
G1 X7.5080 Y22.5766
G1 X7.4863 Y22.5993
G1 X7.4636 Y22.6210
G1 X7.4063 Y22.6729
G1 X7.3825 Y22.6934
G1 X7.3613 Y22.7100
G1 X7.3893 Y22.7149
G1 X7.4199 Y22.7218
G1 X7.4351 Y22.7258
G1 X7.4652 Y22.7349
G1 X7.4800 Y22.7400
G1 X7.5093 Y22.7513
G1 X7.5238 Y22.7575
G1 X7.5522 Y22.7709
G1 X7.5799 Y22.7857
G1 X7.5934 Y22.7937
G1 X7.6200 Y22.8105
G1 X7.6329 Y22.8193
G1 X7.6456 Y22.8285
G1 X7.6704 Y22.8479
G1 X7.6942 Y22.8684
G1 X7.7057 Y22.8791
G1 X7.7169 Y22.8901
G1 X7.7386 Y22.9128
G1 X7.7490 Y22.9246
G1 X7.7689 Y22.9489
G1 X7.7877 Y22.9741
G1 X7.7965 Y22.9870
G1 X7.8051 Y23.0002
G1 X7.8213 Y23.0271
G1 X7.8288 Y23.0409
G1 X7.8430 Y23.0690
G1 X7.8557 Y23.0977
G1 X7.8615 Y23.1123
G1 X7.8670 Y23.1270
G1 X7.8768 Y23.1568
G1 X7.8852 Y23.1871
G1 X7.8888 Y23.2024
G1 X7.8921 Y23.2177
G1 X7.8975 Y23.2487
G1 X7.9013 Y23.2799
G1 X7.9036 Y23.3112
G1 X7.9044 Y23.3426
G1 X7.9044 Y24.9174
G1 X7.9042 Y24.9331
G1 X7.9027 Y24.9645
G1 X7.8996 Y24.9957
G1 X7.8975 Y25.0113
G1 X7.8921 Y25.0423
G1 X7.8852 Y25.0729
G1 X7.8812 Y25.0881
G1 X7.8768 Y25.1032
G1 X7.8670 Y25.1330
G1 X7.8615 Y25.1477
G1 X7.8495 Y25.1768
G1 X7.8361 Y25.2052
G1 X7.8288 Y25.2191
G1 X7.8133 Y25.2464
G1 X7.8051 Y25.2598
G1 X7.7965 Y25.2730
G1 X7.7785 Y25.2986
G1 X7.7591 Y25.3234
G1 X7.7490 Y25.3354
G1 X7.7279 Y25.3587
G1 X7.7169 Y25.3699
G1 X7.7057 Y25.3809
G1 X7.6824 Y25.4020
G1 X7.6704 Y25.4121
G1 X7.6456 Y25.4315
G1 X7.6329 Y25.4407
G1 X7.6068 Y25.4581
G1 X7.5799 Y25.4743
G1 X7.5661 Y25.4818
G1 X7.5522 Y25.4891
G1 X7.5238 Y25.5025
G1 X7.4947 Y25.5145
G1 X7.4652 Y25.5251
G1 X7.4351 Y25.5342
G1 X7.4199 Y25.5382
G1 X7.3893 Y25.5451
G1 X7.3738 Y25.5480
G1 X7.3427 Y25.5526
G1 X7.3115 Y25.5557
G1 X7.2801 Y25.5572
G1 X7.2644 Y25.5574
G1 X5.6896 Y25.5574
G1 X5.6582 Y25.5566
G1 X5.6269 Y25.5543
G1 X5.6113 Y25.5526
G1 X5.5802 Y25.5480
G1 X5.5494 Y25.5418
G1 X5.5341 Y25.5382
G1 X5.5038 Y25.5298
G1 X5.4888 Y25.5251
G1 X5.4593 Y25.5145
G1 X5.4302 Y25.5025
G1 X5.4160 Y25.4960
G1 X5.3879 Y25.4818
G1 X5.3606 Y25.4663
G1 X5.3472 Y25.4581
G1 X5.3211 Y25.4407
G1 X5.3084 Y25.4315
G1 X5.2836 Y25.4121
G1 X5.2598 Y25.3916
G1 X5.2483 Y25.3809
G1 X5.2261 Y25.3587
G1 X5.2154 Y25.3472
G1 X5.1949 Y25.3234
G1 X5.1755 Y25.2986
G1 X5.1663 Y25.2859
G1 X5.1489 Y25.2598
G1 X5.1327 Y25.2329
G1 X5.1252 Y25.2191
G1 X5.1110 Y25.1910
G1 X5.0983 Y25.1623
G1 X5.0925 Y25.1477
G1 X5.0819 Y25.1182
G1 X5.0772 Y25.1032
G1 X5.0688 Y25.0729
G1 X5.0619 Y25.0423
G1 X5.0565 Y25.0113
G1 X5.0527 Y24.9801
G1 X5.0513 Y24.9645
G1 X5.0504 Y24.9488
G1 X5.0496 Y24.9174
G1 X5.0496 Y23.3426
G1 X5.0498 Y23.3269
G1 X5.0513 Y23.2955
G1 X5.0544 Y23.2643
G1 X5.0590 Y23.2332
G1 X5.0652 Y23.2024
G1 X5.0688 Y23.1871
G1 X5.0772 Y23.1568
G1 X5.0870 Y23.1270
G1 X5.0925 Y23.1123
G1 X5.0983 Y23.0977
G1 X5.1110 Y23.0690
G1 X5.1252 Y23.0409
G1 X5.1327 Y23.0271
G1 X5.1489 Y23.0002
G1 X5.1575 Y22.9870
G1 X5.1755 Y22.9614
G1 X5.1851 Y22.9489
G1 X5.2050 Y22.9246
G1 X5.2154 Y22.9128
G1 X5.2371 Y22.8901
G1 X5.2483 Y22.8791
G1 X5.2716 Y22.8580
G1 X5.2836 Y22.8479
G1 X5.3084 Y22.8285
G1 X5.3211 Y22.8193
G1 X5.3340 Y22.8105
G1 X5.3606 Y22.7937
G1 X5.3879 Y22.7782
G1 X5.4018 Y22.7709
G1 X5.4302 Y22.7575
G1 X5.4447 Y22.7513
G1 X5.4593 Y22.7455
G1 X5.4888 Y22.7349
G1 X5.5038 Y22.7302
G1 X5.5341 Y22.7218
G1 X5.5647 Y22.7149
G1 X5.5927 Y22.7100
G1 X5.5715 Y22.6934
G1 X5.5477 Y22.6729
G1 X5.4904 Y22.6210
G1 X5.4677 Y22.5993
G1 X5.4460 Y22.5766
G1 X5.3941 Y22.5193
G1 X5.3736 Y22.4955
G1 X5.3638 Y22.4833
G1 X5.2990 Y22.3960
G1 X5.2902 Y22.3830
G1 X5.2734 Y22.3565
G1 X5.2336 Y22.2902
G1 X5.2181 Y22.2629
G1 X5.2040 Y22.2348
G1 X5.1710 Y22.1650
G1 X5.1644 Y22.1507
G1 X5.1524 Y22.1217
G1 X5.1158 Y22.0193
G1 X5.1067 Y21.9893
G1 X5.1027 Y21.9741
G1 X5.0839 Y21.8991
G1 X5.0770 Y21.8685
G1 X5.0717 Y21.8375
G1 X5.0603 Y21.7611
G1 X5.0565 Y21.7299
G1 X5.0551 Y21.7143
G1 X5.0498 Y21.6057
G1 X5.0496 Y21.5900
G1 X5.0504 Y21.5586
G1 X5.0542 Y21.4814
G1 X5.0565 Y21.4501
G1 X5.0603 Y21.4189
G1 X5.0717 Y21.3425
G1 X5.0742 Y21.3270
G1 X5.0803 Y21.2962
G1 X5.1027 Y21.2059
G1 X5.1111 Y21.1756
G1 X5.1209 Y21.1458
G1 X5.1524 Y21.0583
G1 X5.1644 Y21.0293
G1 X5.1710 Y21.0150
G1 X5.2040 Y20.9452
G1 X5.2181 Y20.9171
G1 X5.2336 Y20.8898
G1 X5.2816 Y20.8101
G1 X5.2990 Y20.7840
G1 X5.3543 Y20.7092
G1 X5.3638 Y20.6967
G1 X5.3837 Y20.6724
G1 X5.4460 Y20.6034
G1 X5.4677 Y20.5807
G1 X5.4904 Y20.5590
G1 X5.5477 Y20.5071
G1 X5.5594 Y20.4967
G1 X5.5837 Y20.4768
G1 X5.6583 Y20.4212
G1 X5.6840 Y20.4032
G1 X5.7105 Y20.3864
G1 X5.7768 Y20.3466
G1 X5.8041 Y20.3311
G1 X5.8261 Y20.3200
G1 X5.8041 Y20.3089
G1 X5.7768 Y20.2934
G1 X5.6971 Y20.2454
G1 X5.6710 Y20.2280
G1 X5.5962 Y20.1727
G1 X5.5715 Y20.1534
G1 X5.5477 Y20.1329
G1 X5.4904 Y20.0810
G1 X5.4677 Y20.0593
G1 X5.4567 Y20.0481
G1 X5.3941 Y19.9793
G1 X5.3736 Y19.9555
G1 X5.3543 Y19.9308
G1 X5.2990 Y19.8560
G1 X5.2902 Y19.8430
G1 X5.2734 Y19.8165
G1 X5.2336 Y19.7502
G1 X5.2181 Y19.7229
G1 X5.2040 Y19.6948
G1 X5.1644 Y19.6107
G1 X5.1524 Y19.5817
G1 X5.1469 Y19.5669
G1 X5.1158 Y19.4793
G1 X5.1067 Y19.4493
G1 X5.0839 Y19.3591
G1 X5.0770 Y19.3285
G1 X5.0717 Y19.2975
G1 X5.0603 Y19.2211
G1 X5.0565 Y19.1899
G1 X5.0542 Y19.1586
G1 X5.0498 Y19.0657
G1 X5.0498 Y19.0343
G1 X5.0542 Y18.9414
G1 X5.0565 Y18.9101
G1 X5.0603 Y18.8789
G1 X5.0717 Y18.8025
G1 X5.0742 Y18.7870
G1 X5.0803 Y18.7562
G1 X5.1027 Y18.6659
G1 X5.1111 Y18.6356
G1 X5.1209 Y18.6058
G1 X5.1524 Y18.5183
G1 X5.1644 Y18.4893
G1 X5.1710 Y18.4750
G1 X5.2040 Y18.4052
G1 X5.2181 Y18.3771
G1 X5.2336 Y18.3498
G1 X5.2816 Y18.2701
G1 X5.2990 Y18.2440
G1 X5.3543 Y18.1692
G1 X5.3638 Y18.1567
G1 X5.3837 Y18.1324
G1 X5.4460 Y18.0634
G1 X5.4677 Y18.0407
G1 X5.4904 Y18.0190
G1 X5.5477 Y17.9671
G1 X5.5594 Y17.9567
G1 X5.5837 Y17.9368
G1 X5.6583 Y17.8812
G1 X5.6840 Y17.8632
G1 X5.7105 Y17.8464
G1 X5.7768 Y17.8066
G1 X5.8041 Y17.7911
G1 X5.8261 Y17.7800
G1 X5.8041 Y17.7689
G1 X5.7768 Y17.7534
G1 X5.6971 Y17.7054
G1 X5.6710 Y17.6880
G1 X5.5962 Y17.6327
G1 X5.5715 Y17.6134
G1 X5.5477 Y17.5929
G1 X5.4904 Y17.5410
G1 X5.4677 Y17.5193
G1 X5.4567 Y17.5081
G1 X5.3941 Y17.4393
G1 X5.3736 Y17.4155
G1 X5.3543 Y17.3908
G1 X5.2990 Y17.3160
G1 X5.2902 Y17.3030
G1 X5.2734 Y17.2765
G1 X5.2336 Y17.2102
G1 X5.2181 Y17.1829
G1 X5.2040 Y17.1548
G1 X5.1644 Y17.0707
G1 X5.1524 Y17.0417
G1 X5.1469 Y17.0269
G1 X5.1158 Y16.9393
G1 X5.1067 Y16.9093
G1 X5.0839 Y16.8191
G1 X5.0770 Y16.7885
G1 X5.0717 Y16.7575
G1 X5.0603 Y16.6811
G1 X5.0565 Y16.6499
G1 X5.0542 Y16.6186
G1 X5.0498 Y16.5257
G1 X5.0498 Y16.4943
G1 X5.0542 Y16.4014
G1 X5.0565 Y16.3701
G1 X5.0603 Y16.3389
G1 X5.0717 Y16.2625
G1 X5.0742 Y16.2470
G1 X5.0803 Y16.2162
G1 X5.1027 Y16.1259
G1 X5.1111 Y16.0956
G1 X5.1209 Y16.0658
G1 X5.1524 Y15.9783
G1 X5.1644 Y15.9493
G1 X5.1710 Y15.9350
G1 X5.2040 Y15.8652
G1 X5.2181 Y15.8371
G1 X5.2336 Y15.8098
G1 X5.2816 Y15.7301
G1 X5.2990 Y15.7040
G1 X5.3543 Y15.6292
G1 X5.3638 Y15.6167
G1 X5.3837 Y15.5924
G1 X5.4460 Y15.5234
G1 X5.4677 Y15.5007
G1 X5.4904 Y15.4790
G1 X5.5477 Y15.4271
G1 X5.5594 Y15.4167
G1 X5.5837 Y15.3968
G1 X5.6583 Y15.3412
G1 X5.6840 Y15.3232
G1 X5.7105 Y15.3064
G1 X5.7768 Y15.2666
G1 X5.8041 Y15.2511
G1 X5.8261 Y15.2400
G1 X5.8041 Y15.2289
G1 X5.7768 Y15.2134
G1 X5.6971 Y15.1654
G1 X5.6710 Y15.1480
G1 X5.5962 Y15.0927
G1 X5.5715 Y15.0734
G1 X5.5477 Y15.0529
G1 X5.4904 Y15.0010
G1 X5.4789 Y14.9903
G1 X5.4567 Y14.9681
G1 X5.3941 Y14.8993
G1 X5.3736 Y14.8755
G1 X5.3543 Y14.8508
G1 X5.2990 Y14.7760
G1 X5.2902 Y14.7630
G1 X5.2734 Y14.7365
G1 X5.2336 Y14.6702
G1 X5.2181 Y14.6429
G1 X5.2040 Y14.6148
G1 X5.1644 Y14.5307
G1 X5.1524 Y14.5017
G1 X5.1209 Y14.4142
G1 X5.1111 Y14.3844
G1 X5.1067 Y14.3693
G1 X5.0839 Y14.2791
G1 X5.0770 Y14.2485
G1 X5.0717 Y14.2175
G1 X5.0603 Y14.1411
G1 X5.0565 Y14.1099
G1 X5.0542 Y14.0786
G1 X5.0498 Y13.9857
G1 X5.0498 Y13.9543
G1 X5.0542 Y13.8614
G1 X5.0565 Y13.8301
G1 X5.0603 Y13.7989
G1 X5.0717 Y13.7225
G1 X5.0770 Y13.6915
G1 X5.0803 Y13.6762
G1 X5.1027 Y13.5859
G1 X5.1111 Y13.5556
G1 X5.1209 Y13.5258
G1 X5.1524 Y13.4383
G1 X5.1644 Y13.4093
G1 X5.1710 Y13.3950
G1 X5.2040 Y13.3252
G1 X5.2181 Y13.2971
G1 X5.2336 Y13.2698
G1 X5.2816 Y13.1901
G1 X5.2990 Y13.1640
G1 X5.3082 Y13.1513
G1 X5.3638 Y13.0767
G1 X5.3837 Y13.0524
G1 X5.4460 Y12.9834
G1 X5.4677 Y12.9607
G1 X5.4904 Y12.9390
G1 X5.5477 Y12.8871
G1 X5.5715 Y12.8666
G1 X5.5837 Y12.8568
G1 X5.6583 Y12.8012
G1 X5.6840 Y12.7832
G1 X5.7105 Y12.7664
G1 X5.7768 Y12.7266
G1 X5.8041 Y12.7111
G1 X5.8261 Y12.7000
G1 X5.8041 Y12.6889
G1 X5.7768 Y12.6734
G1 X5.6971 Y12.6254
G1 X5.6710 Y12.6080
G1 X5.5962 Y12.5527
G1 X5.5715 Y12.5334
G1 X5.5477 Y12.5129
G1 X5.4904 Y12.4610
G1 X5.4789 Y12.4503
G1 X5.4567 Y12.4281
G1 X5.3941 Y12.3593
G1 X5.3736 Y12.3355
G1 X5.3543 Y12.3108
G1 X5.2990 Y12.2360
G1 X5.2902 Y12.2230
G1 X5.2734 Y12.1965
G1 X5.2336 Y12.1302
G1 X5.2181 Y12.1029
G1 X5.2040 Y12.0748
G1 X5.1644 Y11.9907
G1 X5.1524 Y11.9617
G1 X5.1209 Y11.8742
G1 X5.1111 Y11.8444
G1 X5.1067 Y11.8293
G1 X5.0839 Y11.7391
G1 X5.0770 Y11.7085
G1 X5.0717 Y11.6775
G1 X5.0603 Y11.6011
G1 X5.0565 Y11.5699
G1 X5.0542 Y11.5386
G1 X5.0498 Y11.4457
G1 X5.0498 Y11.4143
G1 X5.0542 Y11.3214
G1 X5.0565 Y11.2901
G1 X5.0603 Y11.2589
G1 X5.0717 Y11.1825
G1 X5.0770 Y11.1515
G1 X5.0803 Y11.1362
G1 X5.1027 Y11.0459
G1 X5.1111 Y11.0156
G1 X5.1209 Y10.9858
G1 X5.1524 Y10.8983
G1 X5.1644 Y10.8693
G1 X5.1710 Y10.8550
G1 X5.2040 Y10.7852
G1 X5.2181 Y10.7571
G1 X5.2336 Y10.7298
G1 X5.2816 Y10.6501
G1 X5.2990 Y10.6240
G1 X5.3082 Y10.6113
G1 X5.3638 Y10.5367
G1 X5.3837 Y10.5124
G1 X5.4460 Y10.4434
G1 X5.4677 Y10.4207
G1 X5.4904 Y10.3990
G1 X5.5477 Y10.3471
G1 X5.5715 Y10.3266
G1 X5.5837 Y10.3168
G1 X5.6583 Y10.2612
G1 X5.6840 Y10.2432
G1 X5.7105 Y10.2264
G1 X5.7768 Y10.1866
G1 X5.8041 Y10.1711
G1 X5.8261 Y10.1600
G1 X5.8041 Y10.1489
G1 X5.7768 Y10.1334
G1 X5.6971 Y10.0854
G1 X5.6710 Y10.0680
G1 X5.5962 Y10.0127
G1 X5.5715 Y9.9934
G1 X5.5477 Y9.9729
G1 X5.4904 Y9.9210
G1 X5.4789 Y9.9103
G1 X5.4567 Y9.8881
G1 X5.3941 Y9.8193
G1 X5.3736 Y9.7955
G1 X5.3543 Y9.7708
G1 X5.2990 Y9.6960
G1 X5.2902 Y9.6830
G1 X5.2734 Y9.6565
G1 X5.2336 Y9.5902
G1 X5.2181 Y9.5629
G1 X5.2040 Y9.5348
G1 X5.1710 Y9.4650
G1 X5.1583 Y9.4362
G1 X5.1524 Y9.4217
G1 X5.1209 Y9.3342
G1 X5.1111 Y9.3044
G1 X5.1027 Y9.2741
G1 X5.0803 Y9.1838
G1 X5.0742 Y9.1530
G1 X5.0717 Y9.1375
G1 X5.0603 Y9.0611
G1 X5.0565 Y9.0299
G1 X5.0542 Y8.9986
G1 X5.0504 Y8.9214
G1 X5.0496 Y8.8900
G1 X5.0504 Y8.8586
G1 X5.0551 Y8.7657
G1 X5.0565 Y8.7501
G1 X5.0603 Y8.7189
G1 X5.0717 Y8.6425
G1 X5.0770 Y8.6115
G1 X5.0839 Y8.5809
G1 X5.1027 Y8.5059
G1 X5.1111 Y8.4756
G1 X5.1209 Y8.4458
G1 X5.1524 Y8.3583
G1 X5.1644 Y8.3293
G1 X5.1710 Y8.3150
G1 X5.2040 Y8.2452
G1 X5.2181 Y8.2171
G1 X5.2336 Y8.1898
G1 X5.2734 Y8.1235
G1 X5.2816 Y8.1101
G1 X5.2990 Y8.0840
G1 X5.3543 Y8.0092
G1 X5.3736 Y7.9845
G1 X5.3941 Y7.9607
G1 X5.4567 Y7.8919
G1 X5.4677 Y7.8807
G1 X5.4904 Y7.8590
G1 X5.5477 Y7.8071
G1 X5.5715 Y7.7866
G1 X5.5962 Y7.7673
G1 X5.6710 Y7.7120
G1 X5.6971 Y7.6946
G1 X5.7768 Y7.6466
G1 X5.8041 Y7.6311
G1 X5.8261 Y7.6200
G1 X5.8041 Y7.6089
G1 X5.7904 Y7.6013
G1 X5.7105 Y7.5536
G1 X5.6840 Y7.5368
G1 X5.6583 Y7.5188
G1 X5.5962 Y7.4727
G1 X5.5715 Y7.4534
G1 X5.5477 Y7.4329
G1 X5.4904 Y7.3810
G1 X5.4677 Y7.3593
G1 X5.4460 Y7.3366
G1 X5.3941 Y7.2793
G1 X5.3736 Y7.2555
G1 X5.3543 Y7.2308
G1 X5.3082 Y7.1687
G1 X5.2902 Y7.1430
G1 X5.2816 Y7.1299
G1 X5.2336 Y7.0502
G1 X5.2181 Y7.0229
G1 X5.2040 Y6.9948
G1 X5.1710 Y6.9250
G1 X5.1583 Y6.8962
G1 X5.1469 Y6.8669
G1 X5.1209 Y6.7942
G1 X5.1111 Y6.7644
G1 X5.1067 Y6.7493
G1 X5.0839 Y6.6591
G1 X5.0770 Y6.6285
G1 X5.0717 Y6.5975
G1 X5.0603 Y6.5211
G1 X5.0565 Y6.4899
G1 X5.0542 Y6.4586
G1 X5.0504 Y6.3814
G1 X5.0496 Y6.3500
G1 X5.0504 Y6.3186
G1 X5.0551 Y6.2257
G1 X5.0582 Y6.1945
G1 X5.0717 Y6.1025
G1 X5.0770 Y6.0715
G1 X5.0839 Y6.0409
G1 X5.1027 Y5.9659
G1 X5.1111 Y5.9356
G1 X5.1209 Y5.9058
G1 X5.1469 Y5.8331
G1 X5.1583 Y5.8038
G1 X5.1710 Y5.7750
G1 X5.2040 Y5.7052
G1 X5.2181 Y5.6771
G1 X5.2336 Y5.6498
G1 X5.2734 Y5.5835
G1 X5.2902 Y5.5570
G1 X5.3082 Y5.5313
G1 X5.3543 Y5.4692
G1 X5.3736 Y5.4445
G1 X5.3941 Y5.4207
G1 X5.4460 Y5.3634
G1 X5.4677 Y5.3407
G1 X5.4904 Y5.3190
G1 X5.5477 Y5.2671
G1 X5.5715 Y5.2466
G1 X5.5962 Y5.2273
G1 X5.6583 Y5.1812
G1 X5.6840 Y5.1632
G1 X5.7105 Y5.1464
G1 X5.7768 Y5.1066
G1 X5.8041 Y5.0911
G1 X5.8322 Y5.0770
G1 X5.9020 Y5.0440
G1 X5.9308 Y5.0313
G1 X5.9601 Y5.0199
G1 X6.0328 Y4.9939
G1 X6.0626 Y4.9841
G1 X6.0929 Y4.9757
G1 X6.1679 Y4.9569
G1 X6.1985 Y4.9500
G1 X6.2295 Y4.9447
G1 X6.3059 Y4.9333
G1 X6.3371 Y4.9295
G1 X6.3684 Y4.9272
G1 X6.4456 Y4.9234
G1 X6.4770 Y4.9226
G1 X6.5084 Y4.9234
G1 X6.6013 Y4.9281
G1 X6.6169 Y4.9295
G1 X6.6481 Y4.9333
G1 X6.7245 Y4.9447
G1 X6.7555 Y4.9500
G1 X6.7861 Y4.9569
G1 X6.8611 Y4.9757
G1 X6.8914 Y4.9841
G1 X6.9212 Y4.9939
G1 X6.9939 Y5.0199
G1 X7.0232 Y5.0313
G1 X7.0520 Y5.0440
G1 X7.1359 Y5.0839
G1 X7.1636 Y5.0987
G1 X7.1772 Y5.1066
G1 X7.2435 Y5.1464
G1 X7.2700 Y5.1632
G1 X7.2957 Y5.1812
G1 X7.3703 Y5.2368
G1 X7.3825 Y5.2466
G1 X7.4063 Y5.2671
G1 X7.4751 Y5.3297
G1 X7.4973 Y5.3519
G1 X7.5599 Y5.4207
G1 X7.5703 Y5.4324
G1 X7.5902 Y5.4567
G1 X7.6458 Y5.5313
G1 X7.6638 Y5.5570
G1 X7.6806 Y5.5835
G1 X7.7283 Y5.6634
G1 X7.7431 Y5.6911
G1 X7.7896 Y5.7893
G1 X7.8016 Y5.8183
G1 X7.8071 Y5.8331
G1 X7.8382 Y5.9207
G1 X7.8473 Y5.9507
G1 X7.8701 Y6.0409
G1 X7.8770 Y6.0715
G1 X7.8798 Y6.0870
G1 X7.8937 Y6.1789
G1 X7.8975 Y6.2101
G1 X7.8989 Y6.2257
G1 X7.9042 Y6.3343
G1 X7.9044 Y6.3500
G1 X7.9036 Y6.3814
G0 Z2.0000
G0 X8.0834 Y6.3902
F500
G1 Z0.0000 F500
F500
G1 X8.0784 Y6.4875
G1 X8.0744 Y6.5276
G1 X8.0717 Y6.5475
G1 X8.0604 Y6.6239
G1 X8.0535 Y6.6636
G1 X8.0447 Y6.7029
G1 X8.0259 Y6.7778
G1 X8.0208 Y6.7973
G1 X8.0091 Y6.8358
G1 X7.9695 Y6.9464
G1 X7.9541 Y6.9836
G1 X7.9039 Y7.0899
G1 X7.8849 Y7.1254
G1 X7.8748 Y7.1427
G1 X7.8350 Y7.2090
G1 X7.8135 Y7.2430
G1 X7.7903 Y7.2759
G1 X7.7443 Y7.3380
G1 X7.7195 Y7.3697
G1 X7.6932 Y7.4002
G1 X7.6414 Y7.4575
G1 X7.6136 Y7.4866
G1 X7.5992 Y7.5007
G1 X7.5121 Y7.5796
G1 X7.4810 Y7.6051
G1 X7.4614 Y7.6200
G1 X7.4810 Y7.6349
G1 X7.5121 Y7.6604
G1 X7.5992 Y7.7393
G1 X7.6136 Y7.7534
G1 X7.6414 Y7.7825
G1 X7.6932 Y7.8398
G1 X7.7195 Y7.8703
G1 X7.7443 Y7.9020
G1 X7.7903 Y7.9641
G1 X7.8135 Y7.9970
G1 X7.8350 Y8.0310
G1 X7.8748 Y8.0973
G1 X7.8849 Y8.1146
G1 X7.9039 Y8.1501
G1 X7.9541 Y8.2564
G1 X7.9695 Y8.2936
G1 X8.0091 Y8.4042
G1 X8.0152 Y8.4234
G1 X8.0259 Y8.4622
G1 X8.0447 Y8.5371
G1 X8.0535 Y8.5764
G1 X8.0604 Y8.6161
G1 X8.0717 Y8.6925
G1 X8.0767 Y8.7324
G1 X8.0784 Y8.7525
G1 X8.0842 Y8.8699
G1 X8.0844 Y8.8900
G1 X8.0834 Y8.9302
G1 X8.0796 Y9.0074
G1 X8.0767 Y9.0476
G1 X8.0717 Y9.0875
G1 X8.0604 Y9.1639
G1 X8.0535 Y9.2036
G1 X8.0493 Y9.2233
G1 X8.0208 Y9.3373
G1 X8.0152 Y9.3566
G1 X8.0026 Y9.3948
G1 X7.9765 Y9.4676
G1 X7.9620 Y9.5051
G1 X7.9457 Y9.5419
G1 X7.9127 Y9.6118
G1 X7.8946 Y9.6477
G1 X7.8849 Y9.6654
G1 X7.8245 Y9.7662
G1 X7.8021 Y9.7996
G1 X7.7903 Y9.8159
G1 X7.7443 Y9.8780
G1 X7.7195 Y9.9097
G1 X7.6932 Y9.9402
G1 X7.6414 Y9.9975
G1 X7.6136 Y10.0266
G1 X7.5992 Y10.0407
G1 X7.5121 Y10.1196
G1 X7.4810 Y10.1451
G1 X7.4614 Y10.1600
G1 X7.4810 Y10.1749
G1 X7.5121 Y10.2004
G1 X7.5992 Y10.2793
G1 X7.6277 Y10.3078
G1 X7.6414 Y10.3225
G1 X7.6932 Y10.3798
G1 X7.7195 Y10.4103
G1 X7.7443 Y10.4420
G1 X7.7903 Y10.5041
G1 X7.8135 Y10.5370
G1 X7.8350 Y10.5710
G1 X7.8748 Y10.6373
G1 X7.8849 Y10.6546
G1 X7.9039 Y10.6901
G1 X7.9541 Y10.7964
G1 X7.9695 Y10.8336
G1 X8.0091 Y10.9442
G1 X8.0152 Y10.9634
G1 X8.0259 Y11.0022
G1 X8.0493 Y11.0967
G1 X8.0572 Y11.1362
G1 X8.0604 Y11.1561
G1 X8.0717 Y11.2325
G1 X8.0767 Y11.2724
G1 X8.0796 Y11.3126
G1 X8.0834 Y11.3898
G1 X8.0844 Y11.4300
G1 X8.0842 Y11.4501
G1 X8.0796 Y11.5474
G1 X8.0767 Y11.5876
G1 X8.0717 Y11.6275
G1 X8.0604 Y11.7039
G1 X8.0535 Y11.7436
G1 X8.0493 Y11.7633
G1 X8.0208 Y11.8773
G1 X8.0152 Y11.8966
G1 X8.0026 Y11.9348
G1 X7.9765 Y12.0076
G1 X7.9620 Y12.0451
G1 X7.9457 Y12.0819
G1 X7.9127 Y12.1518
G1 X7.8946 Y12.1877
G1 X7.8849 Y12.2054
G1 X7.8245 Y12.3062
G1 X7.8021 Y12.3396
G1 X7.7903 Y12.3559
G1 X7.7443 Y12.4180
G1 X7.7195 Y12.4497
G1 X7.6932 Y12.4802
G1 X7.6414 Y12.5375
G1 X7.6136 Y12.5666
G1 X7.5992 Y12.5807
G1 X7.5121 Y12.6596
G1 X7.4810 Y12.6851
G1 X7.4614 Y12.7000
G1 X7.4810 Y12.7149
G1 X7.5121 Y12.7404
G1 X7.5992 Y12.8193
G1 X7.6277 Y12.8478
G1 X7.7066 Y12.9349
G1 X7.7321 Y12.9660
G1 X7.7443 Y12.9820
G1 X7.7903 Y13.0441
G1 X7.8135 Y13.0770
G1 X7.8350 Y13.1110
G1 X7.8748 Y13.1773
G1 X7.8946 Y13.2123
G1 X7.9127 Y13.2482
G1 X7.9457 Y13.3181
G1 X7.9620 Y13.3549
G1 X7.9765 Y13.3924
G1 X8.0026 Y13.4652
G1 X8.0091 Y13.4842
G1 X8.0208 Y13.5227
G1 X8.0493 Y13.6367
G1 X8.0572 Y13.6762
G1 X8.0744 Y13.7924
G1 X8.0784 Y13.8325
G1 X8.0796 Y13.8526
G1 X8.0834 Y13.9298
G1 X8.0844 Y13.9700
G1 X8.0834 Y14.0102
G1 X8.0796 Y14.0874
G1 X8.0767 Y14.1276
G1 X8.0744 Y14.1476
G1 X8.0572 Y14.2638
G1 X8.0535 Y14.2836
G1 X8.0447 Y14.3229
G1 X8.0259 Y14.3978
G1 X8.0152 Y14.4366
G1 X8.0026 Y14.4748
G1 X7.9765 Y14.5476
G1 X7.9620 Y14.5851
G1 X7.9541 Y14.6036
G1 X7.9127 Y14.6918
G1 X7.8946 Y14.7277
G1 X7.8748 Y14.7627
G1 X7.8350 Y14.8290
G1 X7.8245 Y14.8462
G1 X7.8021 Y14.8796
G1 X7.7321 Y14.9740
G1 X7.7195 Y14.9897
G1 X7.6932 Y15.0202
G1 X7.6414 Y15.0775
G1 X7.6136 Y15.1066
G1 X7.5845 Y15.1344
G1 X7.5121 Y15.1996
G1 X7.4810 Y15.2251
G1 X7.4614 Y15.2400
G1 X7.4810 Y15.2549
G1 X7.5121 Y15.2804
G1 X7.5992 Y15.3593
G1 X7.6277 Y15.3878
G1 X7.7066 Y15.4749
G1 X7.7321 Y15.5060
G1 X7.7443 Y15.5220
G1 X7.7903 Y15.5841
G1 X7.8135 Y15.6170
G1 X7.8350 Y15.6510
G1 X7.8748 Y15.7173
G1 X7.8946 Y15.7523
G1 X7.9127 Y15.7882
G1 X7.9457 Y15.8581
G1 X7.9620 Y15.8949
G1 X7.9765 Y15.9324
G1 X8.0026 Y16.0052
G1 X8.0152 Y16.0434
G1 X8.0259 Y16.0822
G1 X8.0447 Y16.1571
G1 X8.0535 Y16.1964
G1 X8.0604 Y16.2361
G1 X8.0717 Y16.3125
G1 X8.0767 Y16.3524
G1 X8.0784 Y16.3725
G1 X8.0842 Y16.4899
G1 X8.0844 Y16.5100
G1 X8.0834 Y16.5502
G1 X8.0796 Y16.6274
G1 X8.0767 Y16.6676
G1 X8.0717 Y16.7075
G1 X8.0572 Y16.8038
G1 X8.0535 Y16.8236
G1 X8.0447 Y16.8629
G1 X8.0259 Y16.9378
G1 X8.0152 Y16.9766
G1 X8.0026 Y17.0148
G1 X7.9765 Y17.0876
G1 X7.9695 Y17.1064
G1 X7.9541 Y17.1436
G1 X7.9039 Y17.2499
G1 X7.8849 Y17.2854
G1 X7.8748 Y17.3027
G1 X7.8350 Y17.3690
G1 X7.8135 Y17.4030
G1 X7.7903 Y17.4359
G1 X7.7321 Y17.5140
G1 X7.7195 Y17.5297
G1 X7.6932 Y17.5602
G1 X7.6414 Y17.6175
G1 X7.6136 Y17.6466
G1 X7.5845 Y17.6744
G1 X7.5121 Y17.7396
G1 X7.4810 Y17.7651
G1 X7.4614 Y17.7800
G1 X7.4810 Y17.7949
G1 X7.5121 Y17.8204
G1 X7.5992 Y17.8993
G1 X7.6277 Y17.9278
G1 X7.7066 Y18.0149
G1 X7.7321 Y18.0460
G1 X7.7443 Y18.0620
G1 X7.7903 Y18.1241
G1 X7.8135 Y18.1570
G1 X7.8350 Y18.1910
G1 X7.8748 Y18.2573
G1 X7.8946 Y18.2923
G1 X7.9127 Y18.3282
G1 X7.9457 Y18.3981
G1 X7.9620 Y18.4349
G1 X7.9765 Y18.4724
G1 X8.0026 Y18.5452
G1 X8.0152 Y18.5834
G1 X8.0259 Y18.6222
G1 X8.0447 Y18.6971
G1 X8.0535 Y18.7364
G1 X8.0604 Y18.7761
G1 X8.0717 Y18.8525
G1 X8.0767 Y18.8924
G1 X8.0784 Y18.9125
G1 X8.0842 Y19.0299
G1 X8.0844 Y19.0500
G1 X8.0834 Y19.0902
G1 X8.0796 Y19.1674
G1 X8.0767 Y19.2076
G1 X8.0717 Y19.2475
G1 X8.0572 Y19.3438
G1 X8.0535 Y19.3636
G1 X8.0447 Y19.4029
G1 X8.0259 Y19.4778
G1 X8.0152 Y19.5166
G1 X8.0026 Y19.5548
G1 X7.9765 Y19.6276
G1 X7.9695 Y19.6464
G1 X7.9541 Y19.6836
G1 X7.9039 Y19.7899
G1 X7.8849 Y19.8254
G1 X7.8748 Y19.8427
G1 X7.8350 Y19.9090
G1 X7.8135 Y19.9430
G1 X7.7903 Y19.9759
G1 X7.7321 Y20.0540
G1 X7.7195 Y20.0697
G1 X7.6932 Y20.1002
G1 X7.6414 Y20.1575
G1 X7.6136 Y20.1866
G1 X7.5845 Y20.2144
G1 X7.5121 Y20.2796
G1 X7.4810 Y20.3051
G1 X7.4614 Y20.3200
G1 X7.4810 Y20.3349
G1 X7.5121 Y20.3604
G1 X7.5992 Y20.4393
G1 X7.6277 Y20.4678
G1 X7.7066 Y20.5549
G1 X7.7321 Y20.5860
G1 X7.8021 Y20.6804
G1 X7.8245 Y20.7138
G1 X7.8849 Y20.8146
G1 X7.9039 Y20.8501
G1 X7.9541 Y20.9564
G1 X7.9695 Y20.9936
G1 X8.0091 Y21.1042
G1 X8.0208 Y21.1427
G1 X8.0493 Y21.2567
G1 X8.0572 Y21.2962
G1 X8.0744 Y21.4124
G1 X8.0767 Y21.4324
G1 X8.0796 Y21.4726
G1 X8.0834 Y21.5498
G1 X8.0844 Y21.5900
G1 X8.0834 Y21.6302
G1 X8.0796 Y21.7074
G1 X8.0767 Y21.7476
G1 X8.0717 Y21.7875
G1 X8.0604 Y21.8639
G1 X8.0535 Y21.9036
G1 X8.0447 Y21.9429
G1 X8.0259 Y22.0178
G1 X8.0152 Y22.0566
G1 X8.0026 Y22.0948
G1 X7.9765 Y22.1676
G1 X7.9620 Y22.2051
G1 X7.9457 Y22.2419
G1 X7.9127 Y22.3118
G1 X7.9039 Y22.3299
G1 X7.8849 Y22.3654
G1 X7.8245 Y22.4662
G1 X7.8021 Y22.4996
G1 X7.7321 Y22.5940
G1 X7.7066 Y22.6251
G1 X7.6912 Y22.6425
G1 X7.7200 Y22.6608
G1 X7.7366 Y22.6722
G1 X7.7689 Y22.6962
G1 X7.8000 Y22.7217
G1 X7.8298 Y22.7487
G1 X7.8583 Y22.7772
G1 X7.8853 Y22.8070
G1 X7.8983 Y22.8224
G1 X7.9230 Y22.8541
G1 X7.9462 Y22.8870
G1 X7.9677 Y22.9210
G1 X7.9876 Y22.9561
G1 X8.0057 Y22.9920
G1 X8.0220 Y23.0288
G1 X8.0365 Y23.0664
G1 X8.0491 Y23.1046
G1 X8.0598 Y23.1434
G1 X8.0645 Y23.1629
G1 X8.0723 Y23.2024
G1 X8.0782 Y23.2422
G1 X8.0822 Y23.2823
G1 X8.0842 Y23.3225
G1 X8.0844 Y23.3426
G1 X8.0844 Y24.9174
G1 X8.0834 Y24.9576
G1 X8.0822 Y24.9777
G1 X8.0782 Y25.0178
G1 X8.0755 Y25.0377
G1 X8.0686 Y25.0774
G1 X8.0645 Y25.0971
G1 X8.0547 Y25.1361
G1 X8.0430 Y25.1746
G1 X8.0365 Y25.1936
G1 X8.0295 Y25.2125
G1 X8.0141 Y25.2497
G1 X7.9968 Y25.2861
G1 X7.9876 Y25.3039
G1 X7.9779 Y25.3216
G1 X7.9572 Y25.3561
G1 X7.9462 Y25.3730
G1 X7.9230 Y25.4059
G1 X7.9108 Y25.4219
G1 X7.8853 Y25.4530
G1 X7.8720 Y25.4681
G1 X7.8442 Y25.4972
G1 X7.8151 Y25.5250
G1 X7.8000 Y25.5383
G1 X7.7846 Y25.5513
G1 X7.7529 Y25.5760
G1 X7.7366 Y25.5878
G1 X7.7031 Y25.6102
G1 X7.6686 Y25.6309
G1 X7.6509 Y25.6406
G1 X7.6331 Y25.6498
G1 X7.5967 Y25.6671
G1 X7.5782 Y25.6750
G1 X7.5406 Y25.6895
G1 X7.5024 Y25.7021
G1 X7.4831 Y25.7077
G1 X7.4636 Y25.7128
G1 X7.4244 Y25.7216
G1 X7.3847 Y25.7285
G1 X7.3648 Y25.7312
G1 X7.3247 Y25.7352
G1 X7.2845 Y25.7372
G1 X5.6896 Y25.7374
G1 X5.6494 Y25.7364
G1 X5.6293 Y25.7352
G1 X5.5892 Y25.7312
G1 X5.5494 Y25.7253
G1 X5.5099 Y25.7175
G1 X5.4709 Y25.7077
G1 X5.4324 Y25.6960
G1 X5.3945 Y25.6825
G1 X5.3758 Y25.6750
G1 X5.3390 Y25.6587
G1 X5.3031 Y25.6406
G1 X5.2680 Y25.6207
G1 X5.2509 Y25.6102
G1 X5.2174 Y25.5878
G1 X5.1851 Y25.5638
G1 X5.1540 Y25.5383
G1 X5.1389 Y25.5250
G1 X5.1098 Y25.4972
G1 X5.0820 Y25.4681
G1 X5.0557 Y25.4376
G1 X5.0310 Y25.4059
G1 X5.0078 Y25.3730
G1 X4.9968 Y25.3561
G1 X4.9761 Y25.3216
G1 X4.9572 Y25.2861
G1 X4.9483 Y25.2680
G1 X4.9320 Y25.2312
G1 X4.9175 Y25.1936
G1 X4.9049 Y25.1554
G1 X4.8942 Y25.1166
G1 X4.8854 Y25.0774
G1 X4.8785 Y25.0377
G1 X4.8758 Y25.0178
G1 X4.8718 Y24.9777
G1 X4.8698 Y24.9375
G1 X4.8696 Y23.3426
G1 X4.8698 Y23.3225
G1 X4.8718 Y23.2823
G1 X4.8758 Y23.2422
G1 X4.8817 Y23.2024
G1 X4.8854 Y23.1826
G1 X4.8942 Y23.1434
G1 X4.9049 Y23.1046
G1 X4.9175 Y23.0664
G1 X4.9320 Y23.0288
G1 X4.9483 Y22.9920
G1 X4.9664 Y22.9561
G1 X4.9863 Y22.9210
G1 X5.0078 Y22.8870
G1 X5.0192 Y22.8704
G1 X5.0432 Y22.8381
G1 X5.0687 Y22.8070
G1 X5.0957 Y22.7772
G1 X5.1242 Y22.7487
G1 X5.1540 Y22.7217
G1 X5.1851 Y22.6962
G1 X5.2174 Y22.6722
G1 X5.2340 Y22.6608
G1 X5.2628 Y22.6425
G1 X5.2474 Y22.6251
G1 X5.2219 Y22.5940
G1 X5.1519 Y22.4996
G1 X5.1295 Y22.4662
G1 X5.0691 Y22.3654
G1 X5.0501 Y22.3299
G1 X5.0413 Y22.3118
G1 X5.0083 Y22.2419
G1 X4.9920 Y22.2051
G1 X4.9775 Y22.1676
G1 X4.9514 Y22.0948
G1 X4.9388 Y22.0566
G1 X4.9281 Y22.0178
G1 X4.9093 Y21.9429
G1 X4.9005 Y21.9036
G1 X4.8936 Y21.8639
G1 X4.8823 Y21.7875
G1 X4.8773 Y21.7476
G1 X4.8744 Y21.7074
G1 X4.8706 Y21.6302
G1 X4.8696 Y21.5900
G1 X4.8706 Y21.5498
G1 X4.8744 Y21.4726
G1 X4.8773 Y21.4324
G1 X4.8796 Y21.4124
G1 X4.8968 Y21.2962
G1 X4.9047 Y21.2567
G1 X4.9332 Y21.1427
G1 X4.9449 Y21.1042
G1 X4.9845 Y20.9936
G1 X4.9999 Y20.9564
G1 X5.0501 Y20.8501
G1 X5.0691 Y20.8146
G1 X5.1295 Y20.7138
G1 X5.1519 Y20.6804
G1 X5.2219 Y20.5860
G1 X5.2474 Y20.5549
G1 X5.3263 Y20.4678
G1 X5.3548 Y20.4393
G1 X5.4419 Y20.3604
G1 X5.4730 Y20.3349
G1 X5.4926 Y20.3200
G1 X5.4730 Y20.3051
G1 X5.4419 Y20.2796
G1 X5.3548 Y20.2007
G1 X5.3404 Y20.1866
G1 X5.3126 Y20.1575
G1 X5.2608 Y20.1002
G1 X5.2345 Y20.0697
G1 X5.2097 Y20.0380
G1 X5.1637 Y19.9759
G1 X5.1405 Y19.9430
G1 X5.1190 Y19.9090
G1 X5.0792 Y19.8427
G1 X5.0691 Y19.8254
G1 X5.0501 Y19.7899
G1 X4.9999 Y19.6836
G1 X4.9845 Y19.6464
G1 X4.9449 Y19.5358
G1 X4.9332 Y19.4973
G1 X4.9281 Y19.4778
G1 X4.9047 Y19.3833
G1 X4.8968 Y19.3438
G1 X4.8936 Y19.3239
G1 X4.8823 Y19.2475
G1 X4.8773 Y19.2076
G1 X4.8744 Y19.1674
G1 X4.8706 Y19.0902
G1 X4.8696 Y19.0500
G1 X4.8698 Y19.0299
G1 X4.8744 Y18.9326
G1 X4.8773 Y18.8924
G1 X4.8823 Y18.8525
G1 X4.8936 Y18.7761
G1 X4.9005 Y18.7364
G1 X4.9047 Y18.7167
G1 X4.9332 Y18.6027
G1 X4.9388 Y18.5834
G1 X4.9514 Y18.5452
G1 X4.9775 Y18.4724
G1 X4.9920 Y18.4349
G1 X5.0083 Y18.3981
G1 X5.0413 Y18.3282
G1 X5.0501 Y18.3101
G1 X5.0691 Y18.2746
G1 X5.1295 Y18.1738
G1 X5.1519 Y18.1404
G1 X5.1637 Y18.1241
G1 X5.2097 Y18.0620
G1 X5.2345 Y18.0303
G1 X5.2608 Y17.9998
G1 X5.3126 Y17.9425
G1 X5.3263 Y17.9278
G1 X5.3548 Y17.8993
G1 X5.4419 Y17.8204
G1 X5.4730 Y17.7949
G1 X5.4926 Y17.7800
G1 X5.4730 Y17.7651
G1 X5.4419 Y17.7396
G1 X5.3548 Y17.6607
G1 X5.3263 Y17.6322
G1 X5.2474 Y17.5451
G1 X5.2345 Y17.5297
G1 X5.2097 Y17.4980
G1 X5.1637 Y17.4359
G1 X5.1405 Y17.4030
G1 X5.1190 Y17.3690
G1 X5.0792 Y17.3027
G1 X5.0594 Y17.2677
G1 X5.0413 Y17.2318
G1 X5.0083 Y17.1619
G1 X4.9920 Y17.1251
G1 X4.9775 Y17.0876
G1 X4.9514 Y17.0148
G1 X4.9449 Y16.9958
G1 X4.9332 Y16.9573
G1 X4.9047 Y16.8433
G1 X4.8968 Y16.8038
G1 X4.8796 Y16.6876
G1 X4.8756 Y16.6475
G1 X4.8744 Y16.6274
G1 X4.8706 Y16.5502
G1 X4.8696 Y16.5100
G1 X4.8706 Y16.4698
G1 X4.8744 Y16.3926
G1 X4.8773 Y16.3524
G1 X4.8796 Y16.3324
G1 X4.8968 Y16.2162
G1 X4.9005 Y16.1964
G1 X4.9093 Y16.1571
G1 X4.9281 Y16.0822
G1 X4.9388 Y16.0434
G1 X4.9514 Y16.0052
G1 X4.9775 Y15.9324
G1 X4.9920 Y15.8949
G1 X4.9999 Y15.8764
G1 X5.0501 Y15.7701
G1 X5.0691 Y15.7346
G1 X5.0792 Y15.7173
G1 X5.1190 Y15.6510
G1 X5.1405 Y15.6170
G1 X5.1637 Y15.5841
G1 X5.2219 Y15.5060
G1 X5.2345 Y15.4903
G1 X5.2608 Y15.4598
G1 X5.3126 Y15.4025
G1 X5.3404 Y15.3734
G1 X5.3695 Y15.3456
G1 X5.4419 Y15.2804
G1 X5.4730 Y15.2549
G1 X5.4926 Y15.2400
G1 X5.4730 Y15.2251
G1 X5.4419 Y15.1996
G1 X5.3548 Y15.1207
G1 X5.3263 Y15.0922
G1 X5.2474 Y15.0051
G1 X5.2219 Y14.9740
G1 X5.2097 Y14.9580
G1 X5.1637 Y14.8959
G1 X5.1405 Y14.8630
G1 X5.1190 Y14.8290
G1 X5.0792 Y14.7627
G1 X5.0594 Y14.7277
G1 X5.0413 Y14.6918
G1 X5.0083 Y14.6219
G1 X4.9920 Y14.5851
G1 X4.9775 Y14.5476
G1 X4.9514 Y14.4748
G1 X4.9388 Y14.4366
G1 X4.9281 Y14.3978
G1 X4.9093 Y14.3229
G1 X4.9005 Y14.2836
G1 X4.8936 Y14.2439
G1 X4.8823 Y14.1675
G1 X4.8796 Y14.1476
G1 X4.8756 Y14.1075
G1 X4.8706 Y14.0102
G1 X4.8696 Y13.9700
G1 X4.8706 Y13.9298
G1 X4.8744 Y13.8526
G1 X4.8773 Y13.8124
G1 X4.8796 Y13.7924
G1 X4.8968 Y13.6762
G1 X4.9047 Y13.6367
G1 X4.9093 Y13.6171
G1 X4.9281 Y13.5422
G1 X4.9388 Y13.5034
G1 X4.9514 Y13.4652
G1 X4.9775 Y13.3924
G1 X4.9920 Y13.3549
G1 X4.9999 Y13.3364
G1 X5.0413 Y13.2482
G1 X5.0594 Y13.2123
G1 X5.0792 Y13.1773
G1 X5.1190 Y13.1110
G1 X5.1295 Y13.0938
G1 X5.1519 Y13.0604
G1 X5.2219 Y12.9660
G1 X5.2474 Y12.9349
G1 X5.2608 Y12.9198
G1 X5.3126 Y12.8625
G1 X5.3404 Y12.8334
G1 X5.3695 Y12.8056
G1 X5.4419 Y12.7404
G1 X5.4730 Y12.7149
G1 X5.4926 Y12.7000
G1 X5.4730 Y12.6851
G1 X5.4419 Y12.6596
G1 X5.3548 Y12.5807
G1 X5.3263 Y12.5522
G1 X5.2474 Y12.4651
G1 X5.2219 Y12.4340
G1 X5.1519 Y12.3396
G1 X5.1295 Y12.3062
G1 X5.0691 Y12.2054
G1 X5.0501 Y12.1699
G1 X5.0413 Y12.1518
G1 X5.0083 Y12.0819
G1 X4.9920 Y12.0451
G1 X4.9775 Y12.0076
G1 X4.9514 Y11.9348
G1 X4.9388 Y11.8966
G1 X4.9281 Y11.8578
G1 X4.9093 Y11.7829
G1 X4.9005 Y11.7436
G1 X4.8936 Y11.7039
G1 X4.8823 Y11.6275
G1 X4.8773 Y11.5876
G1 X4.8744 Y11.5474
G1 X4.8698 Y11.4501
G1 X4.8698 Y11.4099
G1 X4.8706 Y11.3898
G1 X4.8744 Y11.3126
G1 X4.8773 Y11.2724
G1 X4.8823 Y11.2325
G1 X4.8936 Y11.1561
G1 X4.8968 Y11.1362
G1 X4.9047 Y11.0967
G1 X4.9281 Y11.0022
G1 X4.9388 Y10.9634
G1 X4.9514 Y10.9252
G1 X4.9775 Y10.8524
G1 X4.9920 Y10.8149
G1 X4.9999 Y10.7964
G1 X5.0413 Y10.7082
G1 X5.0594 Y10.6723
G1 X5.0792 Y10.6373
G1 X5.1190 Y10.5710
G1 X5.1295 Y10.5538
G1 X5.1519 Y10.5204
G1 X5.2219 Y10.4260
G1 X5.2474 Y10.3949
G1 X5.2608 Y10.3798
G1 X5.3126 Y10.3225
G1 X5.3404 Y10.2934
G1 X5.3695 Y10.2656
G1 X5.4419 Y10.2004
G1 X5.4730 Y10.1749
G1 X5.4926 Y10.1600
G1 X5.4730 Y10.1451
G1 X5.4573 Y10.1325
G1 X5.4268 Y10.1062
G1 X5.3548 Y10.0407
G1 X5.3404 Y10.0266
G1 X5.3126 Y9.9975
G1 X5.2474 Y9.9251
G1 X5.2219 Y9.8940
G1 X5.1519 Y9.7996
G1 X5.1405 Y9.7830
G1 X5.1190 Y9.7490
G1 X5.0691 Y9.6654
G1 X5.0501 Y9.6299
G1 X4.9999 Y9.5236
G1 X4.9845 Y9.4864
G1 X4.9449 Y9.3758
G1 X4.9332 Y9.3373
G1 X4.9047 Y9.2233
G1 X4.8968 Y9.1838
G1 X4.8936 Y9.1639
G1 X4.8823 Y9.0875
G1 X4.8773 Y9.0476
G1 X4.8744 Y9.0074
G1 X4.8706 Y8.9302
G1 X4.8698 Y8.9101
G1 X4.8698 Y8.8699
G1 X4.8744 Y8.7726
G1 X4.8773 Y8.7324
G1 X4.8823 Y8.6925
G1 X4.8968 Y8.5962
G1 X4.9047 Y8.5567
G1 X4.9093 Y8.5371
G1 X4.9281 Y8.4622
G1 X4.9388 Y8.4234
G1 X4.9514 Y8.3852
G1 X4.9845 Y8.2936
G1 X4.9999 Y8.2564
G1 X5.0413 Y8.1682
G1 X5.0501 Y8.1501
G1 X5.0691 Y8.1146
G1 X5.1190 Y8.0310
G1 X5.1405 Y7.9970
G1 X5.1637 Y7.9641
G1 X5.2097 Y7.9020
G1 X5.2219 Y7.8860
G1 X5.2474 Y7.8549
G1 X5.3126 Y7.7825
G1 X5.3404 Y7.7534
G1 X5.3695 Y7.7256
G1 X5.4419 Y7.6604
G1 X5.4730 Y7.6349
G1 X5.4926 Y7.6200
G1 X5.4730 Y7.6051
G1 X5.4419 Y7.5796
G1 X5.3695 Y7.5144
G1 X5.3404 Y7.4866
G1 X5.3126 Y7.4575
G1 X5.2608 Y7.4002
G1 X5.2474 Y7.3851
G1 X5.2219 Y7.3540
G1 X5.1637 Y7.2759
G1 X5.1405 Y7.2430
G1 X5.1190 Y7.2090
G1 X5.0792 Y7.1427
G1 X5.0691 Y7.1254
G1 X5.0501 Y7.0899
G1 X5.0083 Y7.0019
G1 X4.9920 Y6.9651
G1 X4.9775 Y6.9276
G1 X4.9449 Y6.8358
G1 X4.9388 Y6.8166
G1 X4.9281 Y6.7778
G1 X4.9093 Y6.7029
G1 X4.9005 Y6.6636
G1 X4.8936 Y6.6239
G1 X4.8823 Y6.5475
G1 X4.8773 Y6.5076
G1 X4.8756 Y6.4875
G1 X4.8706 Y6.3902
G1 X4.8696 Y6.3500
G1 X4.8706 Y6.3098
G1 X4.8744 Y6.2326
G1 X4.8773 Y6.1924
G1 X4.8796 Y6.1724
G1 X4.8936 Y6.0761
G1 X4.9005 Y6.0364
G1 X4.9093 Y5.9971
G1 X4.9281 Y5.9222
G1 X4.9388 Y5.8834
G1 X4.9514 Y5.8452
G1 X4.9775 Y5.7724
G1 X4.9920 Y5.7349
G1 X5.0083 Y5.6981
G1 X5.0413 Y5.6282
G1 X5.0594 Y5.5923
G1 X5.0792 Y5.5573
G1 X5.1190 Y5.4910
G1 X5.1405 Y5.4570
G1 X5.1637 Y5.4241
G1 X5.2097 Y5.3620
G1 X5.2345 Y5.3303
G1 X5.2608 Y5.2998
G1 X5.3126 Y5.2425
G1 X5.3404 Y5.2134
G1 X5.3695 Y5.1856
G1 X5.4268 Y5.1338
G1 X5.4573 Y5.1075
G1 X5.4890 Y5.0827
G1 X5.5511 Y5.0367
G1 X5.5840 Y5.0135
G1 X5.6180 Y4.9920
G1 X5.6843 Y4.9522
G1 X5.7193 Y4.9324
G1 X5.7552 Y4.9143
G1 X5.8251 Y4.8813
G1 X5.8619 Y4.8650
G1 X5.8994 Y4.8505
G1 X5.9722 Y4.8244
G1 X6.0104 Y4.8118
G1 X6.0492 Y4.8011
G1 X6.1241 Y4.7823
G1 X6.1634 Y4.7735
G1 X6.2031 Y4.7666
G1 X6.2795 Y4.7553
G1 X6.3194 Y4.7503
G1 X6.3596 Y4.7474
G1 X6.4368 Y4.7436
G1 X6.4770 Y4.7426
G1 X6.5172 Y4.7436
G1 X6.6145 Y4.7486
G1 X6.6546 Y4.7526
G1 X6.7708 Y4.7698
G1 X6.8103 Y4.7777
G1 X6.9243 Y4.8062
G1 X6.9628 Y4.8179
G1 X7.0734 Y4.8575
G1 X7.1106 Y4.8729
G1 X7.2169 Y4.9231
G1 X7.2524 Y4.9421
G1 X7.3532 Y5.0025
G1 X7.3866 Y5.0249
G1 X7.4810 Y5.0949
G1 X7.5121 Y5.1204
G1 X7.5992 Y5.1993
G1 X7.6277 Y5.2278
G1 X7.6932 Y5.2998
G1 X7.7195 Y5.3303
G1 X7.7321 Y5.3460
G1 X7.7903 Y5.4241
G1 X7.8135 Y5.4570
G1 X7.8350 Y5.4910
G1 X7.8849 Y5.5746
G1 X7.9039 Y5.6101
G1 X7.9541 Y5.7164
G1 X7.9695 Y5.7536
G1 X7.9765 Y5.7724
G1 X8.0091 Y5.8642
G1 X8.0208 Y5.9027
G1 X8.0493 Y6.0167
G1 X8.0572 Y6.0562
G1 X8.0744 Y6.1724
G1 X8.0784 Y6.2125
G1 X8.0842 Y6.3299
G1 X8.0844 Y6.3500
G1 X8.0834 Y6.3902
G0 Z2.0000
G0 X8.2632 Y6.3991
F500
G1 Z0.0000 F500
F500
G1 X8.2579 Y6.5007
G1 X8.2558 Y6.5252
G1 X8.2531 Y6.5496
G1 X8.2384 Y6.6503
G1 X8.2345 Y6.6746
G1 X8.2301 Y6.6987
G1 X8.2250 Y6.7227
G1 X8.2193 Y6.7466
G1 X8.1943 Y6.8453
G1 X8.1874 Y6.8689
G1 X8.1800 Y6.8923
G1 X8.1720 Y6.9155
G1 X8.1375 Y7.0112
G1 X8.1283 Y7.0340
G1 X8.1187 Y7.0566
G1 X8.0754 Y7.1487
G1 X8.0646 Y7.1708
G1 X8.0533 Y7.1926
G1 X8.0415 Y7.2141
G1 X8.0292 Y7.2353
G1 X7.9894 Y7.3016
G1 X7.9766 Y7.3225
G1 X7.9632 Y7.3430
G1 X7.9493 Y7.3633
G1 X7.9349 Y7.3832
G1 X7.8889 Y7.4452
G1 X7.8740 Y7.4648
G1 X7.8587 Y7.4839
G1 X7.8429 Y7.5027
G1 X7.8266 Y7.5211
G1 X7.7747 Y7.5783
G1 X7.7580 Y7.5963
G1 X7.7346 Y7.6200
G1 X7.7580 Y7.6437
G1 X7.7747 Y7.6617
G1 X7.8266 Y7.7189
G1 X7.8429 Y7.7373
G1 X7.8587 Y7.7561
G1 X7.8740 Y7.7752
G1 X7.8889 Y7.7948
G1 X7.9349 Y7.8568
G1 X7.9493 Y7.8767
G1 X7.9632 Y7.8970
G1 X7.9766 Y7.9175
G1 X7.9894 Y7.9384
G1 X8.0292 Y8.0047
G1 X8.0415 Y8.0259
G1 X8.0533 Y8.0474
G1 X8.0646 Y8.0692
G1 X8.0754 Y8.0913
G1 X8.1085 Y8.1611
G1 X8.1187 Y8.1834
G1 X8.1283 Y8.2060
G1 X8.1375 Y8.2288
G1 X8.1460 Y8.2518
G1 X8.1720 Y8.3245
G1 X8.1800 Y8.3477
G1 X8.1874 Y8.3711
G1 X8.1943 Y8.3947
G1 X8.2005 Y8.4184
G1 X8.2193 Y8.4934
G1 X8.2250 Y8.5173
G1 X8.2301 Y8.5413
G1 X8.2345 Y8.5654
G1 X8.2384 Y8.5897
G1 X8.2498 Y8.6661
G1 X8.2531 Y8.6904
G1 X8.2558 Y8.7148
G1 X8.2579 Y8.7393
G1 X8.2594 Y8.7638
G1 X8.2641 Y8.8655
G1 X8.2644 Y8.8900
G1 X8.2641 Y8.9145
G1 X8.2632 Y8.9391
G1 X8.2594 Y9.0162
G1 X8.2579 Y9.0407
G1 X8.2558 Y9.0652
G1 X8.2531 Y9.0896
G1 X8.2498 Y9.1139
G1 X8.2384 Y9.1903
G1 X8.2345 Y9.2146
G1 X8.2301 Y9.2387
G1 X8.2250 Y9.2627
G1 X8.2193 Y9.2866
G1 X8.2005 Y9.3616
G1 X8.1943 Y9.3853
G1 X8.1874 Y9.4089
G1 X8.1800 Y9.4323
G1 X8.1720 Y9.4555
G1 X8.1460 Y9.5282
G1 X8.1375 Y9.5512
G1 X8.1283 Y9.5740
G1 X8.1187 Y9.5966
G1 X8.1085 Y9.6189
G1 X8.0754 Y9.6887
G1 X8.0646 Y9.7108
G1 X8.0533 Y9.7326
G1 X8.0415 Y9.7541
G1 X8.0292 Y9.7753
G1 X7.9894 Y9.8416
G1 X7.9766 Y9.8625
G1 X7.9632 Y9.8830
G1 X7.9493 Y9.9033
G1 X7.9349 Y9.9232
G1 X7.8889 Y9.9852
G1 X7.8740 Y10.0048
G1 X7.8587 Y10.0239
G1 X7.8429 Y10.0427
G1 X7.8266 Y10.0611
G1 X7.7747 Y10.1183
G1 X7.7580 Y10.1363
G1 X7.7346 Y10.1600
G1 X7.7580 Y10.1837
G1 X7.7747 Y10.2017
G1 X7.8266 Y10.2589
G1 X7.8429 Y10.2773
G1 X7.8587 Y10.2961
G1 X7.8740 Y10.3152
G1 X7.8889 Y10.3348
G1 X7.9349 Y10.3968
G1 X7.9493 Y10.4167
G1 X7.9632 Y10.4370
G1 X7.9766 Y10.4575
G1 X7.9894 Y10.4784
G1 X8.0292 Y10.5447
G1 X8.0415 Y10.5659
G1 X8.0533 Y10.5874
G1 X8.0646 Y10.6092
G1 X8.0754 Y10.6313
G1 X8.1085 Y10.7011
G1 X8.1187 Y10.7234
G1 X8.1283 Y10.7460
G1 X8.1375 Y10.7688
G1 X8.1460 Y10.7918
G1 X8.1720 Y10.8645
G1 X8.1800 Y10.8877
G1 X8.1874 Y10.9111
G1 X8.1943 Y10.9347
G1 X8.2005 Y10.9584
G1 X8.2193 Y11.0334
G1 X8.2250 Y11.0573
G1 X8.2301 Y11.0813
G1 X8.2345 Y11.1054
G1 X8.2384 Y11.1297
G1 X8.2498 Y11.2061
G1 X8.2531 Y11.2304
G1 X8.2558 Y11.2548
G1 X8.2579 Y11.2793
G1 X8.2594 Y11.3038
G1 X8.2641 Y11.4055
G1 X8.2644 Y11.4300
G1 X8.2641 Y11.4545
G1 X8.2632 Y11.4791
G1 X8.2594 Y11.5562
G1 X8.2579 Y11.5807
G1 X8.2558 Y11.6052
G1 X8.2531 Y11.6296
G1 X8.2498 Y11.6539
G1 X8.2384 Y11.7303
G1 X8.2345 Y11.7546
G1 X8.2301 Y11.7787
G1 X8.2250 Y11.8027
G1 X8.2193 Y11.8266
G1 X8.2005 Y11.9016
G1 X8.1943 Y11.9253
G1 X8.1874 Y11.9489
G1 X8.1800 Y11.9723
G1 X8.1720 Y11.9955
G1 X8.1460 Y12.0682
G1 X8.1375 Y12.0912
G1 X8.1283 Y12.1140
G1 X8.1187 Y12.1366
G1 X8.1085 Y12.1589
G1 X8.0754 Y12.2287
G1 X8.0646 Y12.2508
G1 X8.0533 Y12.2726
G1 X8.0415 Y12.2941
G1 X8.0292 Y12.3153
G1 X7.9894 Y12.3816
G1 X7.9766 Y12.4025
G1 X7.9632 Y12.4230
G1 X7.9493 Y12.4433
G1 X7.9349 Y12.4632
G1 X7.8889 Y12.5252
G1 X7.8740 Y12.5448
G1 X7.8587 Y12.5639
G1 X7.8429 Y12.5827
G1 X7.8266 Y12.6011
G1 X7.7747 Y12.6583
G1 X7.7580 Y12.6763
G1 X7.7346 Y12.7000
G1 X7.7580 Y12.7237
G1 X7.7747 Y12.7417
G1 X7.8266 Y12.7989
G1 X7.8429 Y12.8173
G1 X7.8587 Y12.8361
G1 X7.8740 Y12.8552
G1 X7.8889 Y12.8748
G1 X7.9349 Y12.9368
G1 X7.9493 Y12.9567
G1 X7.9632 Y12.9770
G1 X7.9766 Y12.9975
G1 X7.9894 Y13.0184
G1 X8.0292 Y13.0847
G1 X8.0415 Y13.1059
G1 X8.0533 Y13.1274
G1 X8.0646 Y13.1492
G1 X8.0754 Y13.1713
G1 X8.1187 Y13.2634
G1 X8.1283 Y13.2860
G1 X8.1375 Y13.3088
G1 X8.1720 Y13.4045
G1 X8.1800 Y13.4277
G1 X8.1874 Y13.4511
G1 X8.1943 Y13.4747
G1 X8.2193 Y13.5734
G1 X8.2250 Y13.5973
G1 X8.2301 Y13.6213
G1 X8.2345 Y13.6454
G1 X8.2384 Y13.6697
G1 X8.2531 Y13.7704
G1 X8.2558 Y13.7948
G1 X8.2579 Y13.8193
G1 X8.2632 Y13.9209
G1 X8.2641 Y13.9455
G1 X8.2644 Y13.9700
G1 X8.2641 Y13.9945
G1 X8.2632 Y14.0191
G1 X8.2579 Y14.1207
G1 X8.2558 Y14.1452
G1 X8.2531 Y14.1696
G1 X8.2498 Y14.1939
G1 X8.2345 Y14.2946
G1 X8.2301 Y14.3187
G1 X8.2250 Y14.3427
G1 X8.2193 Y14.3666
G1 X8.2005 Y14.4416
G1 X8.1943 Y14.4653
G1 X8.1874 Y14.4889
G1 X8.1800 Y14.5123
G1 X8.1720 Y14.5355
G1 X8.1460 Y14.6082
G1 X8.1375 Y14.6312
G1 X8.1283 Y14.6540
G1 X8.1187 Y14.6766
G1 X8.1085 Y14.6989
G1 X8.0754 Y14.7687
G1 X8.0646 Y14.7908
G1 X8.0533 Y14.8126
G1 X8.0415 Y14.8341
G1 X8.0292 Y14.8553
G1 X7.9894 Y14.9216
G1 X7.9766 Y14.9425
G1 X7.9632 Y14.9630
G1 X7.9493 Y14.9833
G1 X7.9349 Y15.0032
G1 X7.8889 Y15.0652
G1 X7.8740 Y15.0848
G1 X7.8587 Y15.1039
G1 X7.8429 Y15.1227
G1 X7.8266 Y15.1411
G1 X7.7747 Y15.1983
G1 X7.7580 Y15.2163
G1 X7.7346 Y15.2400
G1 X7.7580 Y15.2637
G1 X7.7747 Y15.2817
G1 X7.8266 Y15.3389
G1 X7.8429 Y15.3573
G1 X7.8587 Y15.3761
G1 X7.8740 Y15.3952
G1 X7.8889 Y15.4148
G1 X7.9493 Y15.4967
G1 X7.9632 Y15.5170
G1 X7.9766 Y15.5375
G1 X8.0292 Y15.6247
G1 X8.0415 Y15.6459
G1 X8.0533 Y15.6674
G1 X8.0646 Y15.6892
G1 X8.1085 Y15.7811
G1 X8.1187 Y15.8034
G1 X8.1283 Y15.8260
G1 X8.1375 Y15.8488
G1 X8.1460 Y15.8718
G1 X8.1800 Y15.9677
G1 X8.1874 Y15.9911
G1 X8.1943 Y16.0147
G1 X8.2005 Y16.0384
G1 X8.2250 Y16.1373
G1 X8.2301 Y16.1613
G1 X8.2345 Y16.1854
G1 X8.2384 Y16.2097
G1 X8.2531 Y16.3104
G1 X8.2558 Y16.3348
G1 X8.2579 Y16.3593
G1 X8.2594 Y16.3838
G1 X8.2641 Y16.4855
G1 X8.2644 Y16.5100
G1 X8.2641 Y16.5345
G1 X8.2632 Y16.5591
G1 X8.2594 Y16.6362
G1 X8.2579 Y16.6607
G1 X8.2558 Y16.6852
G1 X8.2531 Y16.7096
G1 X8.2498 Y16.7339
G1 X8.2384 Y16.8103
G1 X8.2345 Y16.8346
G1 X8.2301 Y16.8587
G1 X8.2250 Y16.8827
G1 X8.2193 Y16.9066
G1 X8.1943 Y17.0053
G1 X8.1874 Y17.0289
G1 X8.1800 Y17.0523
G1 X8.1460 Y17.1482
G1 X8.1375 Y17.1712
G1 X8.1283 Y17.1940
G1 X8.1187 Y17.2166
G1 X8.1085 Y17.2389
G1 X8.0754 Y17.3087
G1 X8.0646 Y17.3308
G1 X8.0533 Y17.3526
G1 X8.0415 Y17.3741
G1 X8.0292 Y17.3953
G1 X7.9894 Y17.4616
G1 X7.9766 Y17.4825
G1 X7.9632 Y17.5030
G1 X7.9493 Y17.5233
G1 X7.9349 Y17.5432
G1 X7.8889 Y17.6052
G1 X7.8740 Y17.6248
G1 X7.8587 Y17.6439
G1 X7.8429 Y17.6627
G1 X7.8266 Y17.6811
G1 X7.7747 Y17.7383
G1 X7.7580 Y17.7563
G1 X7.7346 Y17.7800
G1 X7.7580 Y17.8037
G1 X7.7747 Y17.8217
G1 X7.8266 Y17.8789
G1 X7.8429 Y17.8973
G1 X7.8587 Y17.9161
G1 X7.8740 Y17.9352
G1 X7.8889 Y17.9548
G1 X7.9493 Y18.0367
G1 X7.9632 Y18.0570
G1 X7.9766 Y18.0775
G1 X8.0292 Y18.1647
G1 X8.0415 Y18.1859
G1 X8.0533 Y18.2074
G1 X8.0646 Y18.2292
G1 X8.1085 Y18.3211
G1 X8.1187 Y18.3434
G1 X8.1283 Y18.3660
G1 X8.1375 Y18.3888
G1 X8.1460 Y18.4118
G1 X8.1800 Y18.5077
G1 X8.1874 Y18.5311
G1 X8.1943 Y18.5547
G1 X8.2005 Y18.5784
G1 X8.2250 Y18.6773
G1 X8.2301 Y18.7013
G1 X8.2345 Y18.7254
G1 X8.2384 Y18.7497
G1 X8.2531 Y18.8504
G1 X8.2558 Y18.8748
G1 X8.2579 Y18.8993
G1 X8.2632 Y19.0009
G1 X8.2641 Y19.0255
G1 X8.2644 Y19.0500
G1 X8.2641 Y19.0745
G1 X8.2632 Y19.0991
G1 X8.2579 Y19.2007
G1 X8.2558 Y19.2252
G1 X8.2531 Y19.2496
G1 X8.2498 Y19.2739
G1 X8.2345 Y19.3746
G1 X8.2301 Y19.3987
G1 X8.2250 Y19.4227
G1 X8.2193 Y19.4466
G1 X8.2005 Y19.5216
G1 X8.1943 Y19.5453
G1 X8.1874 Y19.5689
G1 X8.1800 Y19.5923
G1 X8.1720 Y19.6155
G1 X8.1460 Y19.6882
G1 X8.1375 Y19.7112
G1 X8.1283 Y19.7340
G1 X8.1187 Y19.7566
G1 X8.1085 Y19.7789
G1 X8.0646 Y19.8708
G1 X8.0533 Y19.8926
G1 X8.0415 Y19.9141
G1 X8.0292 Y19.9353
G1 X7.9894 Y20.0016
G1 X7.9766 Y20.0225
G1 X7.9632 Y20.0430
G1 X7.9493 Y20.0633
G1 X7.9349 Y20.0832
G1 X7.8889 Y20.1452
G1 X7.8740 Y20.1648
G1 X7.8587 Y20.1839
G1 X7.8429 Y20.2027
G1 X7.8266 Y20.2211
G1 X7.7747 Y20.2783
G1 X7.7580 Y20.2963
G1 X7.7346 Y20.3200
G1 X7.7580 Y20.3437
G1 X7.7747 Y20.3617
G1 X7.8429 Y20.4373
G1 X7.8587 Y20.4561
G1 X7.8740 Y20.4752
G1 X7.9349 Y20.5568
G1 X7.9493 Y20.5767
G1 X7.9632 Y20.5970
G1 X7.9766 Y20.6175
G1 X8.0292 Y20.7047
G1 X8.0415 Y20.7259
G1 X8.0533 Y20.7474
G1 X8.0646 Y20.7692
G1 X8.0754 Y20.7913
G1 X8.1187 Y20.8834
G1 X8.1283 Y20.9060
G1 X8.1375 Y20.9288
G1 X8.1720 Y21.0245
G1 X8.1800 Y21.0477
G1 X8.1874 Y21.0711
G1 X8.1943 Y21.0947
G1 X8.2193 Y21.1934
G1 X8.2250 Y21.2173
G1 X8.2301 Y21.2413
G1 X8.2345 Y21.2654
G1 X8.2384 Y21.2897
G1 X8.2498 Y21.3661
G1 X8.2531 Y21.3904
G1 X8.2558 Y21.4148
G1 X8.2579 Y21.4393
G1 X8.2594 Y21.4638
G1 X8.2632 Y21.5409
G1 X8.2641 Y21.5655
G1 X8.2644 Y21.5900
G1 X8.2641 Y21.6145
G1 X8.2632 Y21.6391
G1 X8.2579 Y21.7407
G1 X8.2558 Y21.7652
G1 X8.2531 Y21.7896
G1 X8.2384 Y21.8903
G1 X8.2345 Y21.9146
G1 X8.2301 Y21.9387
G1 X8.2250 Y21.9627
G1 X8.2005 Y22.0616
G1 X8.1943 Y22.0853
G1 X8.1874 Y22.1089
G1 X8.1800 Y22.1323
G1 X8.1460 Y22.2282
G1 X8.1375 Y22.2512
G1 X8.1283 Y22.2740
G1 X8.1187 Y22.2966
G1 X8.1085 Y22.3189
G1 X8.0646 Y22.4108
G1 X8.0533 Y22.4326
G1 X8.0415 Y22.4541
G1 X8.0292 Y22.4753
G1 X7.9766 Y22.5625
G1 X7.9632 Y22.5830
G1 X7.9446 Y22.6097
G1 X7.9715 Y22.6355
G1 X7.9886 Y22.6531
G1 X8.0054 Y22.6710
G1 X8.0216 Y22.6894
G1 X8.0374 Y22.7082
G1 X8.0527 Y22.7274
G1 X8.0676 Y22.7469
G1 X8.0820 Y22.7668
G1 X8.0959 Y22.7870
G1 X8.1093 Y22.8076
G1 X8.1221 Y22.8285
G1 X8.1345 Y22.8497
G1 X8.1463 Y22.8712
G1 X8.1576 Y22.8930
G1 X8.1684 Y22.9150
G1 X8.1786 Y22.9374
G1 X8.1883 Y22.9599
G1 X8.1974 Y22.9827
G1 X8.2059 Y23.0057
G1 X8.2139 Y23.0289
G1 X8.2213 Y23.0523
G1 X8.2282 Y23.0759
G1 X8.2344 Y23.0996
G1 X8.2401 Y23.1235
G1 X8.2452 Y23.1475
G1 X8.2497 Y23.1716
G1 X8.2536 Y23.1959
G1 X8.2569 Y23.2202
G1 X8.2596 Y23.2446
G1 X8.2617 Y23.2690
G1 X8.2632 Y23.2935
G1 X8.2641 Y23.3181
G1 X8.2644 Y23.3426
G1 X8.2644 Y24.9174
G1 X8.2641 Y24.9419
G1 X8.2632 Y24.9665
G1 X8.2617 Y24.9910
G1 X8.2596 Y25.0154
G1 X8.2569 Y25.0398
G1 X8.2536 Y25.0641
G1 X8.2497 Y25.0884
G1 X8.2452 Y25.1125
G1 X8.2401 Y25.1365
G1 X8.2344 Y25.1604
G1 X8.2282 Y25.1841
G1 X8.2213 Y25.2077
G1 X8.2139 Y25.2311
G1 X8.2059 Y25.2543
G1 X8.1974 Y25.2773
G1 X8.1883 Y25.3001
G1 X8.1786 Y25.3226
G1 X8.1684 Y25.3450
G1 X8.1576 Y25.3670
G1 X8.1463 Y25.3888
G1 X8.1345 Y25.4103
G1 X8.1221 Y25.4315
G1 X8.1093 Y25.4524
G1 X8.0959 Y25.4730
G1 X8.0820 Y25.4932
G1 X8.0676 Y25.5131
G1 X8.0527 Y25.5326
G1 X8.0374 Y25.5518
G1 X8.0216 Y25.5706
G1 X8.0054 Y25.5890
G1 X7.9886 Y25.6069
G1 X7.9715 Y25.6245
G1 X7.9539 Y25.6416
G1 X7.9360 Y25.6584
G1 X7.9176 Y25.6746
G1 X7.8988 Y25.6904
G1 X7.8796 Y25.7057
G1 X7.8601 Y25.7206
G1 X7.8402 Y25.7350
G1 X7.8200 Y25.7489
G1 X7.7994 Y25.7623
G1 X7.7785 Y25.7751
G1 X7.7573 Y25.7875
G1 X7.7358 Y25.7993
G1 X7.7140 Y25.8106
G1 X7.6920 Y25.8214
G1 X7.6696 Y25.8316
G1 X7.6471 Y25.8413
G1 X7.6243 Y25.8504
G1 X7.6013 Y25.8589
G1 X7.5781 Y25.8669
G1 X7.5547 Y25.8743
G1 X7.5311 Y25.8812
G1 X7.5074 Y25.8874
G1 X7.4835 Y25.8931
G1 X7.4595 Y25.8982
G1 X7.4354 Y25.9027
G1 X7.4111 Y25.9066
G1 X7.3868 Y25.9099
G1 X7.3624 Y25.9126
G1 X7.3380 Y25.9147
G1 X7.3135 Y25.9162
G1 X7.2889 Y25.9171
G1 X7.2644 Y25.9174
G1 X5.6896 Y25.9174
G1 X5.6651 Y25.9171
G1 X5.6405 Y25.9162
G1 X5.6160 Y25.9147
G1 X5.5916 Y25.9126
G1 X5.5672 Y25.9099
G1 X5.5429 Y25.9066
G1 X5.5186 Y25.9027
G1 X5.4945 Y25.8982
G1 X5.4705 Y25.8931
G1 X5.4466 Y25.8874
G1 X5.4229 Y25.8812
G1 X5.3993 Y25.8743
G1 X5.3759 Y25.8669
G1 X5.3527 Y25.8589
G1 X5.3297 Y25.8504
G1 X5.3069 Y25.8413
G1 X5.2844 Y25.8316
G1 X5.2620 Y25.8214
G1 X5.2400 Y25.8106
G1 X5.2182 Y25.7993
G1 X5.1967 Y25.7875
G1 X5.1755 Y25.7751
G1 X5.1546 Y25.7623
G1 X5.1340 Y25.7489
G1 X5.1138 Y25.7350
G1 X5.0939 Y25.7206
G1 X5.0744 Y25.7057
G1 X5.0552 Y25.6904
G1 X5.0364 Y25.6746
G1 X5.0180 Y25.6584
G1 X5.0001 Y25.6416
G1 X4.9825 Y25.6245
G1 X4.9654 Y25.6069
G1 X4.9486 Y25.5890
G1 X4.9324 Y25.5706
G1 X4.9166 Y25.5518
G1 X4.9013 Y25.5326
G1 X4.8864 Y25.5131
G1 X4.8720 Y25.4932
G1 X4.8581 Y25.4730
G1 X4.8447 Y25.4524
G1 X4.8319 Y25.4315
G1 X4.8195 Y25.4103
G1 X4.8077 Y25.3888
G1 X4.7964 Y25.3670
G1 X4.7856 Y25.3450
G1 X4.7754 Y25.3226
G1 X4.7657 Y25.3001
G1 X4.7566 Y25.2773
G1 X4.7481 Y25.2543
G1 X4.7401 Y25.2311
G1 X4.7327 Y25.2077
G1 X4.7258 Y25.1841
G1 X4.7196 Y25.1604
G1 X4.7139 Y25.1365
G1 X4.7088 Y25.1125
G1 X4.7043 Y25.0884
G1 X4.7004 Y25.0641
G1 X4.6971 Y25.0398
G1 X4.6944 Y25.0154
G1 X4.6923 Y24.9910
G1 X4.6908 Y24.9665
G1 X4.6899 Y24.9419
G1 X4.6896 Y24.9174
G1 X4.6896 Y23.3426
G1 X4.6899 Y23.3181
G1 X4.6908 Y23.2935
G1 X4.6923 Y23.2690
G1 X4.6944 Y23.2446
G1 X4.6971 Y23.2202
G1 X4.7004 Y23.1959
G1 X4.7043 Y23.1716
G1 X4.7088 Y23.1475
G1 X4.7139 Y23.1235
G1 X4.7196 Y23.0996
G1 X4.7258 Y23.0759
G1 X4.7327 Y23.0523
G1 X4.7401 Y23.0289
G1 X4.7481 Y23.0057
G1 X4.7566 Y22.9827
G1 X4.7657 Y22.9599
G1 X4.7754 Y22.9374
G1 X4.7856 Y22.9150
G1 X4.7964 Y22.8930
G1 X4.8077 Y22.8712
G1 X4.8195 Y22.8497
G1 X4.8319 Y22.8285
G1 X4.8447 Y22.8076
G1 X4.8581 Y22.7870
G1 X4.8720 Y22.7668
G1 X4.8864 Y22.7469
G1 X4.9013 Y22.7274
G1 X4.9166 Y22.7082
G1 X4.9324 Y22.6894
G1 X4.9486 Y22.6710
G1 X4.9654 Y22.6531
G1 X4.9825 Y22.6355
G1 X5.0094 Y22.6097
G1 X4.9908 Y22.5830
G1 X4.9774 Y22.5625
G1 X4.9248 Y22.4753
G1 X4.9125 Y22.4541
G1 X4.9007 Y22.4326
G1 X4.8894 Y22.4108
G1 X4.8455 Y22.3189
G1 X4.8353 Y22.2966
G1 X4.8257 Y22.2740
G1 X4.8165 Y22.2512
G1 X4.8080 Y22.2282
G1 X4.7740 Y22.1323
G1 X4.7666 Y22.1089
G1 X4.7597 Y22.0853
G1 X4.7535 Y22.0616
G1 X4.7290 Y21.9627
G1 X4.7239 Y21.9387
G1 X4.7195 Y21.9146
G1 X4.7042 Y21.8139
G1 X4.7009 Y21.7896
G1 X4.6982 Y21.7652
G1 X4.6961 Y21.7407
G1 X4.6946 Y21.7162
G1 X4.6899 Y21.6145
G1 X4.6896 Y21.5900
G1 X4.6899 Y21.5655
G1 X4.6946 Y21.4638
G1 X4.6961 Y21.4393
G1 X4.6982 Y21.4148
G1 X4.7009 Y21.3904
G1 X4.7156 Y21.2897
G1 X4.7195 Y21.2654
G1 X4.7239 Y21.2413
G1 X4.7290 Y21.2173
G1 X4.7347 Y21.1934
G1 X4.7535 Y21.1184
G1 X4.7597 Y21.0947
G1 X4.7666 Y21.0711
G1 X4.7740 Y21.0477
G1 X4.7820 Y21.0245
G1 X4.8080 Y20.9518
G1 X4.8165 Y20.9288
G1 X4.8257 Y20.9060
G1 X4.8353 Y20.8834
G1 X4.8455 Y20.8611
G1 X4.8786 Y20.7913
G1 X4.8894 Y20.7692
G1 X4.9007 Y20.7474
G1 X4.9125 Y20.7259
G1 X4.9248 Y20.7047
G1 X4.9774 Y20.6175
G1 X4.9908 Y20.5970
G1 X5.0047 Y20.5767
G1 X5.0191 Y20.5568
G1 X5.0800 Y20.4752
G1 X5.0953 Y20.4561
G1 X5.1111 Y20.4373
G1 X5.1793 Y20.3617
G1 X5.1960 Y20.3437
G1 X5.2194 Y20.3200
G1 X5.1960 Y20.2963
G1 X5.1793 Y20.2783
G1 X5.1274 Y20.2211
G1 X5.1111 Y20.2027
G1 X5.0953 Y20.1839
G1 X5.0800 Y20.1648
G1 X5.0651 Y20.1452
G1 X5.0191 Y20.0832
G1 X5.0047 Y20.0633
G1 X4.9908 Y20.0430
G1 X4.9774 Y20.0225
G1 X4.9646 Y20.0016
G1 X4.9248 Y19.9353
G1 X4.9125 Y19.9141
G1 X4.9007 Y19.8926
G1 X4.8894 Y19.8708
G1 X4.8786 Y19.8487
G1 X4.8455 Y19.7789
G1 X4.8353 Y19.7566
G1 X4.8257 Y19.7340
G1 X4.8165 Y19.7112
G1 X4.8080 Y19.6882
G1 X4.7820 Y19.6155
G1 X4.7740 Y19.5923
G1 X4.7666 Y19.5689
G1 X4.7597 Y19.5453
G1 X4.7535 Y19.5216
G1 X4.7347 Y19.4466
G1 X4.7290 Y19.4227
G1 X4.7239 Y19.3987
G1 X4.7195 Y19.3746
G1 X4.7156 Y19.3503
G1 X4.7042 Y19.2739
G1 X4.7009 Y19.2496
G1 X4.6982 Y19.2252
G1 X4.6961 Y19.2007
G1 X4.6946 Y19.1762
G1 X4.6899 Y19.0745
G1 X4.6896 Y19.0500
G1 X4.6899 Y19.0255
G1 X4.6908 Y19.0009
G1 X4.6946 Y18.9238
G1 X4.6961 Y18.8993
G1 X4.6982 Y18.8748
G1 X4.7009 Y18.8504
G1 X4.7042 Y18.8261
G1 X4.7156 Y18.7497
G1 X4.7195 Y18.7254
G1 X4.7239 Y18.7013
G1 X4.7290 Y18.6773
G1 X4.7347 Y18.6534
G1 X4.7535 Y18.5784
G1 X4.7597 Y18.5547
G1 X4.7666 Y18.5311
G1 X4.7740 Y18.5077
G1 X4.7820 Y18.4845
G1 X4.8080 Y18.4118
G1 X4.8165 Y18.3888
G1 X4.8257 Y18.3660
G1 X4.8353 Y18.3434
G1 X4.8455 Y18.3211
G1 X4.8786 Y18.2513
G1 X4.8894 Y18.2292
G1 X4.9007 Y18.2074
G1 X4.9125 Y18.1859
G1 X4.9248 Y18.1647
G1 X4.9646 Y18.0984
G1 X4.9774 Y18.0775
G1 X4.9908 Y18.0570
G1 X5.0047 Y18.0367
G1 X5.0191 Y18.0168
G1 X5.0651 Y17.9548
G1 X5.0800 Y17.9352
G1 X5.0953 Y17.9161
G1 X5.1111 Y17.8973
G1 X5.1274 Y17.8789
G1 X5.1793 Y17.8217
G1 X5.1960 Y17.8037
G1 X5.2194 Y17.7800
G1 X5.1960 Y17.7563
G1 X5.1793 Y17.7383
G1 X5.1274 Y17.6811
G1 X5.1111 Y17.6627
G1 X5.0953 Y17.6439
G1 X5.0800 Y17.6248
G1 X5.0651 Y17.6052
G1 X5.0191 Y17.5432
G1 X5.0047 Y17.5233
G1 X4.9908 Y17.5030
G1 X4.9774 Y17.4825
G1 X4.9646 Y17.4616
G1 X4.9248 Y17.3953
G1 X4.9125 Y17.3741
G1 X4.9007 Y17.3526
G1 X4.8894 Y17.3308
G1 X4.8786 Y17.3087
G1 X4.8353 Y17.2166
G1 X4.8257 Y17.1940
G1 X4.8165 Y17.1712
G1 X4.8080 Y17.1482
G1 X4.7740 Y17.0523
G1 X4.7666 Y17.0289
G1 X4.7597 Y17.0053
G1 X4.7347 Y16.9066
G1 X4.7290 Y16.8827
G1 X4.7239 Y16.8587
G1 X4.7195 Y16.8346
G1 X4.7042 Y16.7339
G1 X4.7009 Y16.7096
G1 X4.6982 Y16.6852
G1 X4.6961 Y16.6607
G1 X4.6908 Y16.5591
G1 X4.6899 Y16.5345
G1 X4.6896 Y16.5100
G1 X4.6899 Y16.4855
G1 X4.6946 Y16.3838
G1 X4.6961 Y16.3593
G1 X4.6982 Y16.3348
G1 X4.7009 Y16.3104
G1 X4.7042 Y16.2861
G1 X4.7195 Y16.1854
G1 X4.7239 Y16.1613
G1 X4.7290 Y16.1373
G1 X4.7347 Y16.1134
G1 X4.7535 Y16.0384
G1 X4.7597 Y16.0147
G1 X4.7666 Y15.9911
G1 X4.7740 Y15.9677
G1 X4.7820 Y15.9445
G1 X4.8080 Y15.8718
G1 X4.8165 Y15.8488
G1 X4.8257 Y15.8260
G1 X4.8353 Y15.8034
G1 X4.8455 Y15.7811
G1 X4.8786 Y15.7113
G1 X4.8894 Y15.6892
G1 X4.9007 Y15.6674
G1 X4.9125 Y15.6459
G1 X4.9248 Y15.6247
G1 X4.9646 Y15.5584
G1 X4.9774 Y15.5375
G1 X4.9908 Y15.5170
G1 X5.0047 Y15.4967
G1 X5.0191 Y15.4768
G1 X5.0651 Y15.4148
G1 X5.0800 Y15.3952
G1 X5.0953 Y15.3761
G1 X5.1111 Y15.3573
G1 X5.1274 Y15.3389
G1 X5.1793 Y15.2817
G1 X5.1960 Y15.2637
G1 X5.2194 Y15.2400
G1 X5.1960 Y15.2163
G1 X5.1793 Y15.1983
G1 X5.1274 Y15.1411
G1 X5.1111 Y15.1227
G1 X5.0953 Y15.1039
G1 X5.0800 Y15.0848
G1 X5.0651 Y15.0652
G1 X5.0047 Y14.9833
G1 X4.9908 Y14.9630
G1 X4.9774 Y14.9425
G1 X4.9248 Y14.8553
G1 X4.9125 Y14.8341
G1 X4.9007 Y14.8126
G1 X4.8894 Y14.7908
G1 X4.8455 Y14.6989
G1 X4.8353 Y14.6766
G1 X4.8257 Y14.6540
G1 X4.8165 Y14.6312
G1 X4.8080 Y14.6082
G1 X4.7740 Y14.5123
G1 X4.7666 Y14.4889
G1 X4.7597 Y14.4653
G1 X4.7347 Y14.3666
G1 X4.7290 Y14.3427
G1 X4.7239 Y14.3187
G1 X4.7195 Y14.2946
G1 X4.7156 Y14.2703
G1 X4.7009 Y14.1696
G1 X4.6982 Y14.1452
G1 X4.6961 Y14.1207
G1 X4.6946 Y14.0962
G1 X4.6908 Y14.0191
G1 X4.6899 Y13.9945
G1 X4.6896 Y13.9700
G1 X4.6899 Y13.9455
G1 X4.6908 Y13.9209
G1 X4.6946 Y13.8438
G1 X4.6961 Y13.8193
G1 X4.6982 Y13.7948
G1 X4.7009 Y13.7704
G1 X4.7156 Y13.6697
G1 X4.7195 Y13.6454
G1 X4.7239 Y13.6213
G1 X4.7290 Y13.5973
G1 X4.7347 Y13.5734
G1 X4.7597 Y13.4747
G1 X4.7666 Y13.4511
G1 X4.7740 Y13.4277
G1 X4.8080 Y13.3318
G1 X4.8165 Y13.3088
G1 X4.8257 Y13.2860
G1 X4.8353 Y13.2634
G1 X4.8455 Y13.2411
G1 X4.8786 Y13.1713
G1 X4.8894 Y13.1492
G1 X4.9007 Y13.1274
G1 X4.9125 Y13.1059
G1 X4.9248 Y13.0847
G1 X4.9646 Y13.0184
G1 X4.9774 Y12.9975
G1 X4.9908 Y12.9770
G1 X5.0047 Y12.9567
G1 X5.0191 Y12.9368
G1 X5.0651 Y12.8748
G1 X5.0800 Y12.8552
G1 X5.0953 Y12.8361
G1 X5.1111 Y12.8173
G1 X5.1274 Y12.7989
G1 X5.1793 Y12.7417
G1 X5.1960 Y12.7237
G1 X5.2194 Y12.7000
G1 X5.1960 Y12.6763
G1 X5.1793 Y12.6583
G1 X5.1274 Y12.6011
G1 X5.1111 Y12.5827
G1 X5.0953 Y12.5639
G1 X5.0800 Y12.5448
G1 X5.0651 Y12.5252
G1 X5.0047 Y12.4433
G1 X4.9908 Y12.4230
G1 X4.9774 Y12.4025
G1 X4.9248 Y12.3153
G1 X4.9125 Y12.2941
G1 X4.9007 Y12.2726
G1 X4.8894 Y12.2508
G1 X4.8455 Y12.1589
G1 X4.8353 Y12.1366
G1 X4.8257 Y12.1140
G1 X4.8165 Y12.0912
G1 X4.8080 Y12.0682
G1 X4.7740 Y11.9723
G1 X4.7666 Y11.9489
G1 X4.7597 Y11.9253
G1 X4.7535 Y11.9016
G1 X4.7290 Y11.8027
G1 X4.7239 Y11.7787
G1 X4.7195 Y11.7546
G1 X4.7042 Y11.6539
G1 X4.7009 Y11.6296
G1 X4.6982 Y11.6052
G1 X4.6961 Y11.5807
G1 X4.6946 Y11.5562
G1 X4.6899 Y11.4545
G1 X4.6896 Y11.4300
G1 X4.6899 Y11.4055
G1 X4.6908 Y11.3809
G1 X4.6961 Y11.2793
G1 X4.6982 Y11.2548
G1 X4.7009 Y11.2304
G1 X4.7042 Y11.2061
G1 X4.7156 Y11.1297
G1 X4.7195 Y11.1054
G1 X4.7239 Y11.0813
G1 X4.7290 Y11.0573
G1 X4.7347 Y11.0334
G1 X4.7535 Y10.9584
G1 X4.7597 Y10.9347
G1 X4.7666 Y10.9111
G1 X4.7740 Y10.8877
G1 X4.8080 Y10.7918
G1 X4.8165 Y10.7688
G1 X4.8257 Y10.7460
G1 X4.8353 Y10.7234
G1 X4.8455 Y10.7011
G1 X4.8894 Y10.6092
G1 X4.9007 Y10.5874
G1 X4.9125 Y10.5659
G1 X4.9248 Y10.5447
G1 X4.9646 Y10.4784
G1 X4.9774 Y10.4575
G1 X4.9908 Y10.4370
G1 X5.0047 Y10.4167
G1 X5.0191 Y10.3968
G1 X5.0651 Y10.3348
G1 X5.0800 Y10.3152
G1 X5.0953 Y10.2961
G1 X5.1111 Y10.2773
G1 X5.1274 Y10.2589
G1 X5.1793 Y10.2017
G1 X5.1960 Y10.1837
G1 X5.2194 Y10.1600
G1 X5.1960 Y10.1363
G1 X5.1793 Y10.1183
G1 X5.1111 Y10.0427
G1 X5.0953 Y10.0239
G1 X5.0800 Y10.0048
G1 X5.0191 Y9.9232
G1 X5.0047 Y9.9033
G1 X4.9908 Y9.8830
G1 X4.9774 Y9.8625
G1 X4.9646 Y9.8416
G1 X4.9125 Y9.7541
G1 X4.9007 Y9.7326
G1 X4.8894 Y9.7108
G1 X4.8786 Y9.6887
G1 X4.8455 Y9.6189
G1 X4.8353 Y9.5966
G1 X4.8257 Y9.5740
G1 X4.8165 Y9.5512
G1 X4.8080 Y9.5282
G1 X4.7820 Y9.4555
G1 X4.7740 Y9.4323
G1 X4.7666 Y9.4089
G1 X4.7597 Y9.3853
G1 X4.7535 Y9.3616
G1 X4.7347 Y9.2866
G1 X4.7290 Y9.2627
G1 X4.7239 Y9.2387
G1 X4.7195 Y9.2146
G1 X4.7156 Y9.1903
G1 X4.7009 Y9.0896
G1 X4.6982 Y9.0652
G1 X4.6961 Y9.0407
G1 X4.6946 Y9.0162
G1 X4.6908 Y8.9391
G1 X4.6899 Y8.9145
G1 X4.6896 Y8.8900
G1 X4.6899 Y8.8655
G1 X4.6908 Y8.8409
G1 X4.6946 Y8.7638
G1 X4.6961 Y8.7393
G1 X4.6982 Y8.7148
G1 X4.7009 Y8.6904
G1 X4.7042 Y8.6661
G1 X4.7156 Y8.5897
G1 X4.7195 Y8.5654
G1 X4.7239 Y8.5413
G1 X4.7290 Y8.5173
G1 X4.7347 Y8.4934
G1 X4.7597 Y8.3947
G1 X4.7666 Y8.3711
G1 X4.7740 Y8.3477
G1 X4.7820 Y8.3245
G1 X4.8080 Y8.2518
G1 X4.8165 Y8.2288
G1 X4.8257 Y8.2060
G1 X4.8353 Y8.1834
G1 X4.8455 Y8.1611
G1 X4.8786 Y8.0913
G1 X4.8894 Y8.0692
G1 X4.9007 Y8.0474
G1 X4.9125 Y8.0259
G1 X4.9646 Y7.9384
G1 X4.9774 Y7.9175
G1 X4.9908 Y7.8970
G1 X5.0047 Y7.8767
G1 X5.0191 Y7.8568
G1 X5.0651 Y7.7948
G1 X5.0800 Y7.7752
G1 X5.0953 Y7.7561
G1 X5.1111 Y7.7373
G1 X5.1274 Y7.7189
G1 X5.1793 Y7.6617
G1 X5.1960 Y7.6437
G1 X5.2194 Y7.6200
G1 X5.1960 Y7.5963
G1 X5.1793 Y7.5783
G1 X5.1274 Y7.5211
G1 X5.1111 Y7.5027
G1 X5.0953 Y7.4839
G1 X5.0800 Y7.4648
G1 X5.0651 Y7.4452
G1 X5.0191 Y7.3832
G1 X5.0047 Y7.3633
G1 X4.9908 Y7.3430
G1 X4.9774 Y7.3225
G1 X4.9646 Y7.3016
G1 X4.9125 Y7.2141
G1 X4.9007 Y7.1926
G1 X4.8894 Y7.1708
G1 X4.8786 Y7.1487
G1 X4.8455 Y7.0789
G1 X4.8353 Y7.0566
G1 X4.8257 Y7.0340
G1 X4.8165 Y7.0112
G1 X4.8080 Y6.9882
G1 X4.7820 Y6.9155
G1 X4.7740 Y6.8923
G1 X4.7666 Y6.8689
G1 X4.7597 Y6.8453
G1 X4.7535 Y6.8216
G1 X4.7290 Y6.7227
G1 X4.7239 Y6.6987
G1 X4.7195 Y6.6746
G1 X4.7156 Y6.6503
G1 X4.7042 Y6.5739
G1 X4.7009 Y6.5496
G1 X4.6982 Y6.5252
G1 X4.6961 Y6.5007
G1 X4.6946 Y6.4762
G1 X4.6908 Y6.3991
G1 X4.6899 Y6.3745
G1 X4.6896 Y6.3500
G1 X4.6899 Y6.3255
G1 X4.6908 Y6.3009
G1 X4.6961 Y6.1993
G1 X4.6982 Y6.1748
G1 X4.7009 Y6.1504
G1 X4.7042 Y6.1261
G1 X4.7195 Y6.0254
G1 X4.7239 Y6.0013
G1 X4.7290 Y5.9773
G1 X4.7347 Y5.9534
G1 X4.7597 Y5.8547
G1 X4.7666 Y5.8311
G1 X4.7740 Y5.8077
G1 X4.8080 Y5.7118
G1 X4.8165 Y5.6888
G1 X4.8257 Y5.6660
G1 X4.8353 Y5.6434
G1 X4.8455 Y5.6211
G1 X4.8894 Y5.5292
G1 X4.9007 Y5.5074
G1 X4.9125 Y5.4859
G1 X4.9646 Y5.3984
G1 X4.9774 Y5.3775
G1 X4.9908 Y5.3570
G1 X5.0047 Y5.3367
G1 X5.0191 Y5.3168
G1 X5.0651 Y5.2548
G1 X5.0800 Y5.2352
G1 X5.0953 Y5.2161
G1 X5.1111 Y5.1973
G1 X5.1274 Y5.1789
G1 X5.1793 Y5.1217
G1 X5.1960 Y5.1037
G1 X5.2131 Y5.0861
G1 X5.2307 Y5.0690
G1 X5.2487 Y5.0523
G1 X5.3059 Y5.0004
G1 X5.3243 Y4.9841
G1 X5.3431 Y4.9683
G1 X5.3622 Y4.9530
G1 X5.3818 Y4.9381
G1 X5.4438 Y4.8921
G1 X5.4637 Y4.8777
G1 X5.4840 Y4.8638
G1 X5.5045 Y4.8504
G1 X5.5254 Y4.8376
G1 X5.5917 Y4.7978
G1 X5.6129 Y4.7855
G1 X5.6344 Y4.7737
G1 X5.6562 Y4.7624
G1 X5.6783 Y4.7516
G1 X5.7481 Y4.7185
G1 X5.7704 Y4.7083
G1 X5.7930 Y4.6987
G1 X5.8158 Y4.6895
G1 X5.8388 Y4.6810
G1 X5.9115 Y4.6550
G1 X5.9347 Y4.6470
G1 X5.9581 Y4.6396
G1 X5.9817 Y4.6327
G1 X6.0054 Y4.6265
G1 X6.0804 Y4.6077
G1 X6.1043 Y4.6020
G1 X6.1283 Y4.5969
G1 X6.1524 Y4.5925
G1 X6.1767 Y4.5886
G1 X6.2531 Y4.5772
G1 X6.2774 Y4.5739
G1 X6.3018 Y4.5712
G1 X6.3263 Y4.5691
G1 X6.3508 Y4.5676
G1 X6.4279 Y4.5638
G1 X6.4525 Y4.5629
G1 X6.4770 Y4.5626
G1 X6.5015 Y4.5629
G1 X6.5261 Y4.5638
G1 X6.6277 Y4.5691
G1 X6.6522 Y4.5712
G1 X6.6766 Y4.5739
G1 X6.7773 Y4.5886
G1 X6.8016 Y4.5925
G1 X6.8257 Y4.5969
G1 X6.8497 Y4.6020
G1 X6.8736 Y4.6077
G1 X6.9723 Y4.6327
G1 X6.9959 Y4.6396
G1 X7.0193 Y4.6470
G1 X7.1152 Y4.6810
G1 X7.1382 Y4.6895
G1 X7.1610 Y4.6987
G1 X7.1836 Y4.7083
G1 X7.2059 Y4.7185
G1 X7.2978 Y4.7624
G1 X7.3196 Y4.7737
G1 X7.3411 Y4.7855
G1 X7.4286 Y4.8376
G1 X7.4495 Y4.8504
G1 X7.4700 Y4.8638
G1 X7.4903 Y4.8777
G1 X7.5102 Y4.8921
G1 X7.5918 Y4.9530
G1 X7.6109 Y4.9683
G1 X7.6297 Y4.9841
G1 X7.6481 Y5.0004
G1 X7.7233 Y5.0690
G1 X7.7409 Y5.0861
G1 X7.7580 Y5.1037
G1 X7.8266 Y5.1789
G1 X7.8429 Y5.1973
G1 X7.8587 Y5.2161
G1 X7.8740 Y5.2352
G1 X7.9349 Y5.3168
G1 X7.9493 Y5.3367
G1 X7.9632 Y5.3570
G1 X7.9766 Y5.3775
G1 X7.9894 Y5.3984
G1 X8.0415 Y5.4859
G1 X8.0533 Y5.5074
G1 X8.0646 Y5.5292
G1 X8.1085 Y5.6211
G1 X8.1187 Y5.6434
G1 X8.1283 Y5.6660
G1 X8.1375 Y5.6888
G1 X8.1460 Y5.7118
G1 X8.1800 Y5.8077
G1 X8.1874 Y5.8311
G1 X8.1943 Y5.8547
G1 X8.2005 Y5.8784
G1 X8.2250 Y5.9773
G1 X8.2301 Y6.0013
G1 X8.2345 Y6.0254
G1 X8.2384 Y6.0497
G1 X8.2531 Y6.1504
G1 X8.2558 Y6.1748
G1 X8.2579 Y6.1993
G1 X8.2632 Y6.3009
G1 X8.2641 Y6.3255
G1 X8.2644 Y6.3500
G1 X8.2641 Y6.3745
G1 X8.2632 Y6.3991
G0 Z2.0000
G0 X8.4430 Y6.4079
F500
G1 Z0.0000 F500
F500
G1 X8.4392 Y6.4851
G1 X8.4374 Y6.5140
G1 X8.4349 Y6.5428
G1 X8.4317 Y6.5716
G1 X8.4278 Y6.6003
G1 X8.4165 Y6.6768
G1 X8.4119 Y6.7053
G1 X8.4066 Y6.7338
G1 X8.4006 Y6.7622
G1 X8.3939 Y6.7903
G1 X8.3751 Y6.8653
G1 X8.3678 Y6.8933
G1 X8.3597 Y6.9211
G1 X8.3509 Y6.9487
G1 X8.3415 Y6.9761
G1 X8.3155 Y7.0489
G1 X8.3054 Y7.0760
G1 X8.2946 Y7.1029
G1 X8.2832 Y7.1295
G1 X8.2712 Y7.1558
G1 X8.2381 Y7.2257
G1 X8.2254 Y7.2517
G1 X8.2121 Y7.2774
G1 X8.1981 Y7.3028
G1 X8.1835 Y7.3278
G1 X8.1438 Y7.3941
G1 X8.1286 Y7.4188
G1 X8.1128 Y7.4430
G1 X8.0964 Y7.4669
G1 X8.0795 Y7.4904
G1 X8.0335 Y7.5524
G1 X8.0159 Y7.5755
G1 X7.9978 Y7.5981
G1 X7.9794 Y7.6200
G1 X7.9978 Y7.6419
G1 X8.0159 Y7.6645
G1 X8.0335 Y7.6876
G1 X8.0795 Y7.7496
G1 X8.0964 Y7.7731
G1 X8.1128 Y7.7970
G1 X8.1286 Y7.8212
G1 X8.1438 Y7.8459
G1 X8.1835 Y7.9122
G1 X8.1981 Y7.9372
G1 X8.2121 Y7.9626
G1 X8.2254 Y7.9883
G1 X8.2381 Y8.0143
G1 X8.2712 Y8.0842
G1 X8.2832 Y8.1105
G1 X8.2946 Y8.1371
G1 X8.3054 Y8.1640
G1 X8.3155 Y8.1911
G1 X8.3415 Y8.2639
G1 X8.3509 Y8.2913
G1 X8.3597 Y8.3189
G1 X8.3678 Y8.3467
G1 X8.3751 Y8.3747
G1 X8.3939 Y8.4497
G1 X8.4006 Y8.4778
G1 X8.4066 Y8.5062
G1 X8.4119 Y8.5347
G1 X8.4165 Y8.5632
G1 X8.4278 Y8.6397
G1 X8.4317 Y8.6684
G1 X8.4349 Y8.6972
G1 X8.4374 Y8.7260
G1 X8.4392 Y8.7549
G1 X8.4430 Y8.8321
G1 X8.4440 Y8.8610
G1 X8.4444 Y8.8900
G1 X8.4440 Y8.9190
G1 X8.4430 Y8.9479
G1 X8.4392 Y9.0251
G1 X8.4374 Y9.0540
G1 X8.4349 Y9.0828
G1 X8.4317 Y9.1116
G1 X8.4278 Y9.1403
G1 X8.4165 Y9.2168
G1 X8.4119 Y9.2453
G1 X8.4066 Y9.2738
G1 X8.4006 Y9.3022
G1 X8.3939 Y9.3303
G1 X8.3751 Y9.4053
G1 X8.3678 Y9.4333
G1 X8.3597 Y9.4611
G1 X8.3509 Y9.4887
G1 X8.3415 Y9.5161
G1 X8.3155 Y9.5889
G1 X8.3054 Y9.6160
G1 X8.2946 Y9.6429
G1 X8.2832 Y9.6695
G1 X8.2712 Y9.6958
G1 X8.2381 Y9.7657
G1 X8.2254 Y9.7917
G1 X8.2121 Y9.8174
G1 X8.1981 Y9.8428
G1 X8.1835 Y9.8678
G1 X8.1438 Y9.9341
G1 X8.1286 Y9.9588
G1 X8.1128 Y9.9830
G1 X8.0964 Y10.0069
G1 X8.0795 Y10.0304
G1 X8.0335 Y10.0924
G1 X8.0159 Y10.1155
G1 X7.9978 Y10.1381
G1 X7.9794 Y10.1600
G1 X7.9978 Y10.1819
G1 X8.0159 Y10.2045
G1 X8.0335 Y10.2276
G1 X8.0795 Y10.2896
G1 X8.0964 Y10.3131
G1 X8.1128 Y10.3370
G1 X8.1286 Y10.3612
G1 X8.1438 Y10.3859
G1 X8.1835 Y10.4522
G1 X8.1981 Y10.4772
G1 X8.2121 Y10.5026
G1 X8.2254 Y10.5283
G1 X8.2381 Y10.5543
G1 X8.2712 Y10.6242
G1 X8.2832 Y10.6505
G1 X8.2946 Y10.6771
G1 X8.3054 Y10.7040
G1 X8.3155 Y10.7311
G1 X8.3415 Y10.8039
G1 X8.3509 Y10.8313
G1 X8.3597 Y10.8589
G1 X8.3678 Y10.8867
G1 X8.3751 Y10.9147
G1 X8.3939 Y10.9897
G1 X8.4006 Y11.0178
G1 X8.4066 Y11.0462
G1 X8.4119 Y11.0747
G1 X8.4165 Y11.1032
G1 X8.4278 Y11.1797
G1 X8.4317 Y11.2084
G1 X8.4349 Y11.2372
G1 X8.4374 Y11.2660
G1 X8.4392 Y11.2949
G1 X8.4430 Y11.3721
G1 X8.4440 Y11.4010
G1 X8.4444 Y11.4300
G1 X8.4440 Y11.4590
G1 X8.4430 Y11.4879
G1 X8.4392 Y11.5651
G1 X8.4374 Y11.5940
G1 X8.4349 Y11.6228
G1 X8.4317 Y11.6516
G1 X8.4278 Y11.6803
G1 X8.4165 Y11.7568
G1 X8.4119 Y11.7853
G1 X8.4066 Y11.8138
G1 X8.4006 Y11.8422
G1 X8.3939 Y11.8703
G1 X8.3751 Y11.9453
G1 X8.3678 Y11.9733
G1 X8.3597 Y12.0011
G1 X8.3509 Y12.0287
G1 X8.3415 Y12.0561
G1 X8.3155 Y12.1289
G1 X8.3054 Y12.1560
G1 X8.2946 Y12.1829
G1 X8.2832 Y12.2095
G1 X8.2712 Y12.2358
G1 X8.2381 Y12.3057
G1 X8.2254 Y12.3317
G1 X8.2121 Y12.3574
G1 X8.1981 Y12.3828
G1 X8.1835 Y12.4078
G1 X8.1438 Y12.4741
G1 X8.1286 Y12.4988
G1 X8.1128 Y12.5230
G1 X8.0964 Y12.5469
G1 X8.0795 Y12.5704
G1 X8.0335 Y12.6324
G1 X8.0159 Y12.6555
G1 X7.9978 Y12.6781
G1 X7.9794 Y12.7000
G1 X7.9978 Y12.7219
G1 X8.0159 Y12.7445
G1 X8.0335 Y12.7676
G1 X8.0795 Y12.8296
G1 X8.0964 Y12.8531
G1 X8.1128 Y12.8770
G1 X8.1286 Y12.9012
G1 X8.1438 Y12.9259
G1 X8.1835 Y12.9922
G1 X8.1981 Y13.0172
G1 X8.2121 Y13.0426
G1 X8.2254 Y13.0683
G1 X8.2381 Y13.0943
G1 X8.2712 Y13.1642
G1 X8.2832 Y13.1905
G1 X8.2946 Y13.2171
G1 X8.3054 Y13.2440
G1 X8.3155 Y13.2711
G1 X8.3415 Y13.3439
G1 X8.3509 Y13.3713
G1 X8.3597 Y13.3989
G1 X8.3678 Y13.4267
G1 X8.3751 Y13.4547
G1 X8.3939 Y13.5297
G1 X8.4006 Y13.5578
G1 X8.4066 Y13.5862
G1 X8.4119 Y13.6147
G1 X8.4165 Y13.6432
G1 X8.4278 Y13.7197
G1 X8.4317 Y13.7484
G1 X8.4349 Y13.7772
G1 X8.4374 Y13.8060
G1 X8.4392 Y13.8349
G1 X8.4430 Y13.9121
G1 X8.4440 Y13.9410
G1 X8.4444 Y13.9700
G1 X8.4440 Y13.9990
G1 X8.4430 Y14.0279
G1 X8.4392 Y14.1051
G1 X8.4374 Y14.1340
G1 X8.4349 Y14.1628
G1 X8.4317 Y14.1916
G1 X8.4278 Y14.2203
G1 X8.4165 Y14.2968
G1 X8.4119 Y14.3253
G1 X8.4066 Y14.3538
G1 X8.4006 Y14.3822
G1 X8.3939 Y14.4103
G1 X8.3751 Y14.4853
G1 X8.3678 Y14.5133
G1 X8.3597 Y14.5411
G1 X8.3509 Y14.5687
G1 X8.3415 Y14.5961
G1 X8.3155 Y14.6689
G1 X8.3054 Y14.6960
G1 X8.2946 Y14.7229
G1 X8.2832 Y14.7495
G1 X8.2712 Y14.7758
G1 X8.2381 Y14.8457
G1 X8.2254 Y14.8717
G1 X8.2121 Y14.8974
G1 X8.1981 Y14.9228
G1 X8.1835 Y14.9478
G1 X8.1438 Y15.0141
G1 X8.1286 Y15.0388
G1 X8.1128 Y15.0630
G1 X8.0964 Y15.0869
G1 X8.0795 Y15.1104
G1 X8.0335 Y15.1724
G1 X8.0159 Y15.1955
G1 X7.9978 Y15.2181
G1 X7.9794 Y15.2400
G1 X7.9978 Y15.2619
G1 X8.0159 Y15.2845
G1 X8.0335 Y15.3076
G1 X8.0795 Y15.3696
G1 X8.0964 Y15.3931
G1 X8.1128 Y15.4170
G1 X8.1286 Y15.4412
G1 X8.1438 Y15.4659
G1 X8.1835 Y15.5322
G1 X8.1981 Y15.5572
G1 X8.2121 Y15.5826
G1 X8.2254 Y15.6083
G1 X8.2381 Y15.6343
G1 X8.2712 Y15.7042
G1 X8.2832 Y15.7305
G1 X8.2946 Y15.7571
G1 X8.3054 Y15.7840
G1 X8.3155 Y15.8111
G1 X8.3415 Y15.8839
G1 X8.3509 Y15.9113
G1 X8.3597 Y15.9389
G1 X8.3678 Y15.9667
G1 X8.3751 Y15.9947
G1 X8.3939 Y16.0697
G1 X8.4006 Y16.0978
G1 X8.4066 Y16.1262
G1 X8.4119 Y16.1547
G1 X8.4165 Y16.1832
G1 X8.4278 Y16.2597
G1 X8.4317 Y16.2884
G1 X8.4349 Y16.3172
G1 X8.4374 Y16.3460
G1 X8.4392 Y16.3749
G1 X8.4430 Y16.4521
G1 X8.4440 Y16.4810
G1 X8.4444 Y16.5100
G1 X8.4440 Y16.5390
G1 X8.4430 Y16.5679
G1 X8.4392 Y16.6451
G1 X8.4374 Y16.6740
G1 X8.4349 Y16.7028
G1 X8.4317 Y16.7316
G1 X8.4278 Y16.7603
G1 X8.4165 Y16.8368
G1 X8.4119 Y16.8653
G1 X8.4066 Y16.8938
G1 X8.4006 Y16.9222
G1 X8.3939 Y16.9503
G1 X8.3751 Y17.0253
G1 X8.3678 Y17.0533
G1 X8.3597 Y17.0811
G1 X8.3509 Y17.1087
G1 X8.3415 Y17.1361
G1 X8.3155 Y17.2089
G1 X8.3054 Y17.2360
G1 X8.2946 Y17.2629
G1 X8.2832 Y17.2895
G1 X8.2712 Y17.3158
G1 X8.2381 Y17.3857
G1 X8.2254 Y17.4117
G1 X8.2121 Y17.4374
G1 X8.1981 Y17.4628
G1 X8.1835 Y17.4878
G1 X8.1438 Y17.5541
G1 X8.1286 Y17.5788
G1 X8.1128 Y17.6030
G1 X8.0964 Y17.6269
G1 X8.0795 Y17.6504
G1 X8.0335 Y17.7124
G1 X8.0159 Y17.7355
G1 X7.9978 Y17.7581
G1 X7.9794 Y17.7800
G1 X7.9978 Y17.8019
G1 X8.0159 Y17.8245
G1 X8.0335 Y17.8476
G1 X8.0795 Y17.9096
G1 X8.0964 Y17.9331
G1 X8.1128 Y17.9570
G1 X8.1286 Y17.9812
G1 X8.1438 Y18.0059
G1 X8.1835 Y18.0722
G1 X8.1981 Y18.0972
G1 X8.2121 Y18.1226
G1 X8.2254 Y18.1483
G1 X8.2381 Y18.1743
G1 X8.2712 Y18.2442
G1 X8.2832 Y18.2705
G1 X8.2946 Y18.2971
G1 X8.3054 Y18.3240
G1 X8.3155 Y18.3511
G1 X8.3415 Y18.4239
G1 X8.3509 Y18.4513
G1 X8.3597 Y18.4789
G1 X8.3678 Y18.5067
G1 X8.3751 Y18.5347
G1 X8.3939 Y18.6097
G1 X8.4006 Y18.6378
G1 X8.4066 Y18.6662
G1 X8.4119 Y18.6947
G1 X8.4165 Y18.7232
G1 X8.4278 Y18.7997
G1 X8.4317 Y18.8284
G1 X8.4349 Y18.8572
G1 X8.4374 Y18.8860
G1 X8.4392 Y18.9149
G1 X8.4430 Y18.9921
G1 X8.4440 Y19.0210
G1 X8.4444 Y19.0500
G1 X8.4440 Y19.0790
G1 X8.4430 Y19.1079
G1 X8.4392 Y19.1851
G1 X8.4374 Y19.2140
G1 X8.4349 Y19.2428
G1 X8.4317 Y19.2716
G1 X8.4278 Y19.3003
G1 X8.4165 Y19.3768
G1 X8.4119 Y19.4053
G1 X8.4066 Y19.4338
G1 X8.4006 Y19.4622
G1 X8.3939 Y19.4903
G1 X8.3751 Y19.5653
G1 X8.3678 Y19.5933
G1 X8.3597 Y19.6211
G1 X8.3509 Y19.6487
G1 X8.3415 Y19.6761
G1 X8.3155 Y19.7489
G1 X8.3054 Y19.7760
G1 X8.2946 Y19.8029
G1 X8.2832 Y19.8295
G1 X8.2712 Y19.8558
G1 X8.2381 Y19.9257
G1 X8.2254 Y19.9517
G1 X8.2121 Y19.9774
G1 X8.1981 Y20.0028
G1 X8.1835 Y20.0278
G1 X8.1438 Y20.0941
G1 X8.1286 Y20.1188
G1 X8.1128 Y20.1430
G1 X8.0964 Y20.1669
G1 X8.0795 Y20.1904
G1 X8.0335 Y20.2524
G1 X8.0159 Y20.2755
G1 X7.9978 Y20.2981
G1 X7.9794 Y20.3200
G1 X7.9978 Y20.3419
G1 X8.0159 Y20.3645
G1 X8.0335 Y20.3876
G1 X8.0795 Y20.4496
G1 X8.0964 Y20.4731
G1 X8.1128 Y20.4970
G1 X8.1286 Y20.5212
G1 X8.1438 Y20.5459
G1 X8.1835 Y20.6122
G1 X8.1981 Y20.6372
G1 X8.2121 Y20.6626
G1 X8.2254 Y20.6883
G1 X8.2381 Y20.7143
G1 X8.2712 Y20.7842
G1 X8.2832 Y20.8105
G1 X8.2946 Y20.8371
G1 X8.3054 Y20.8640
G1 X8.3155 Y20.8911
G1 X8.3415 Y20.9639
G1 X8.3509 Y20.9913
G1 X8.3597 Y21.0189
G1 X8.3678 Y21.0467
G1 X8.3751 Y21.0747
G1 X8.3939 Y21.1497
G1 X8.4006 Y21.1778
G1 X8.4066 Y21.2062
G1 X8.4119 Y21.2347
G1 X8.4165 Y21.2632
G1 X8.4278 Y21.3397
G1 X8.4317 Y21.3684
G1 X8.4349 Y21.3972
G1 X8.4374 Y21.4260
G1 X8.4392 Y21.4549
G1 X8.4430 Y21.5321
G1 X8.4440 Y21.5610
G1 X8.4444 Y21.5900
G1 X8.4440 Y21.6190
G1 X8.4430 Y21.6479
G1 X8.4392 Y21.7251
G1 X8.4374 Y21.7540
G1 X8.4349 Y21.7828
G1 X8.4317 Y21.8116
G1 X8.4278 Y21.8403
G1 X8.4165 Y21.9168
G1 X8.4119 Y21.9453
G1 X8.4066 Y21.9738
G1 X8.4006 Y22.0022
G1 X8.3939 Y22.0303
G1 X8.3751 Y22.1053
G1 X8.3678 Y22.1333
G1 X8.3597 Y22.1611
G1 X8.3509 Y22.1887
G1 X8.3415 Y22.2161
G1 X8.3155 Y22.2889
G1 X8.3054 Y22.3160
G1 X8.2946 Y22.3429
G1 X8.2832 Y22.3695
G1 X8.2712 Y22.3958
G1 X8.2381 Y22.4657
G1 X8.2254 Y22.4917
G1 X8.2121 Y22.5174
G1 X8.1981 Y22.5428
G1 X8.1715 Y22.5880
G1 X8.1946 Y22.6166
G1 X8.2122 Y22.6397
G1 X8.2291 Y22.6631
G1 X8.2455 Y22.6870
G1 X8.2613 Y22.7113
G1 X8.2765 Y22.7360
G1 X8.2911 Y22.7610
G1 X8.3051 Y22.7864
G1 X8.3184 Y22.8121
G1 X8.3311 Y22.8381
G1 X8.3432 Y22.8644
G1 X8.3546 Y22.8910
G1 X8.3653 Y22.9179
G1 X8.3754 Y22.9451
G1 X8.3848 Y22.9725
G1 X8.3936 Y23.0001
G1 X8.4017 Y23.0279
G1 X8.4090 Y23.0559
G1 X8.4157 Y23.0841
G1 X8.4217 Y23.1124
G1 X8.4270 Y23.1409
G1 X8.4316 Y23.1695
G1 X8.4355 Y23.1982
G1 X8.4387 Y23.2269
G1 X8.4412 Y23.2558
G1 X8.4430 Y23.2847
G1 X8.4440 Y23.3136
G1 X8.4444 Y23.3426
G1 X8.4444 Y24.9174
G1 X8.4440 Y24.9464
G1 X8.4430 Y24.9753
G1 X8.4412 Y25.0042
G1 X8.4387 Y25.0331
G1 X8.4355 Y25.0618
G1 X8.4316 Y25.0905
G1 X8.4270 Y25.1191
G1 X8.4217 Y25.1476
G1 X8.4157 Y25.1759
G1 X8.4090 Y25.2041
G1 X8.4017 Y25.2321
G1 X8.3936 Y25.2599
G1 X8.3848 Y25.2875
G1 X8.3754 Y25.3149
G1 X8.3653 Y25.3421
G1 X8.3546 Y25.3690
G1 X8.3432 Y25.3956
G1 X8.3311 Y25.4219
G1 X8.3184 Y25.4479
G1 X8.3051 Y25.4736
G1 X8.2911 Y25.4990
G1 X8.2765 Y25.5240
G1 X8.2613 Y25.5487
G1 X8.2455 Y25.5730
G1 X8.2291 Y25.5969
G1 X8.2122 Y25.6203
G1 X8.1946 Y25.6434
G1 X8.1766 Y25.6660
G1 X8.1579 Y25.6881
G1 X8.1387 Y25.7098
G1 X8.1190 Y25.7311
G1 X8.0988 Y25.7518
G1 X8.0781 Y25.7720
G1 X8.0568 Y25.7917
G1 X8.0351 Y25.8109
G1 X8.0130 Y25.8296
G1 X7.9904 Y25.8476
G1 X7.9673 Y25.8652
G1 X7.9439 Y25.8821
G1 X7.9200 Y25.8985
G1 X7.8957 Y25.9143
G1 X7.8710 Y25.9295
G1 X7.8460 Y25.9441
G1 X7.8206 Y25.9581
G1 X7.7949 Y25.9714
G1 X7.7689 Y25.9841
G1 X7.7426 Y25.9962
G1 X7.7160 Y26.0076
G1 X7.6891 Y26.0183
G1 X7.6619 Y26.0284
G1 X7.6345 Y26.0378
G1 X7.6069 Y26.0466
G1 X7.5791 Y26.0547
G1 X7.5511 Y26.0620
G1 X7.5229 Y26.0687
G1 X7.4946 Y26.0747
G1 X7.4661 Y26.0800
G1 X7.4375 Y26.0846
G1 X7.4088 Y26.0885
G1 X7.3801 Y26.0917
G1 X7.3512 Y26.0942
G1 X7.3223 Y26.0960
G1 X7.2934 Y26.0970
G1 X7.2644 Y26.0974
G1 X5.6896 Y26.0974
G1 X5.6606 Y26.0970
G1 X5.6317 Y26.0960
G1 X5.6028 Y26.0942
G1 X5.5739 Y26.0917
G1 X5.5452 Y26.0885
G1 X5.5165 Y26.0846
G1 X5.4879 Y26.0800
G1 X5.4594 Y26.0747
G1 X5.4311 Y26.0687
G1 X5.4029 Y26.0620
G1 X5.3749 Y26.0547
G1 X5.3471 Y26.0466
G1 X5.3195 Y26.0378
G1 X5.2921 Y26.0284
G1 X5.2649 Y26.0183
G1 X5.2380 Y26.0076
G1 X5.2114 Y25.9962
G1 X5.1851 Y25.9841
G1 X5.1591 Y25.9714
G1 X5.1334 Y25.9581
G1 X5.1080 Y25.9441
G1 X5.0830 Y25.9295
G1 X5.0583 Y25.9143
G1 X5.0340 Y25.8985
G1 X5.0101 Y25.8821
G1 X4.9867 Y25.8652
G1 X4.9636 Y25.8476
G1 X4.9410 Y25.8296
G1 X4.9189 Y25.8109
G1 X4.8972 Y25.7917
G1 X4.8759 Y25.7720
G1 X4.8552 Y25.7518
G1 X4.8350 Y25.7311
G1 X4.8153 Y25.7098
G1 X4.7961 Y25.6881
G1 X4.7774 Y25.6660
G1 X4.7594 Y25.6434
G1 X4.7418 Y25.6203
G1 X4.7249 Y25.5969
G1 X4.7085 Y25.5730
G1 X4.6927 Y25.5487
G1 X4.6775 Y25.5240
G1 X4.6629 Y25.4990
G1 X4.6489 Y25.4736
G1 X4.6356 Y25.4479
G1 X4.6229 Y25.4219
G1 X4.6108 Y25.3956
G1 X4.5994 Y25.3690
G1 X4.5887 Y25.3421
G1 X4.5786 Y25.3149
G1 X4.5692 Y25.2875
G1 X4.5604 Y25.2599
G1 X4.5523 Y25.2321
G1 X4.5450 Y25.2041
G1 X4.5383 Y25.1759
G1 X4.5323 Y25.1476
G1 X4.5270 Y25.1191
G1 X4.5224 Y25.0905
G1 X4.5185 Y25.0618
G1 X4.5153 Y25.0331
G1 X4.5128 Y25.0042
G1 X4.5110 Y24.9753
G1 X4.5100 Y24.9464
G1 X4.5096 Y24.9174
G1 X4.5096 Y23.3426
G1 X4.5100 Y23.3136
G1 X4.5110 Y23.2847
G1 X4.5128 Y23.2558
G1 X4.5153 Y23.2269
G1 X4.5185 Y23.1982
G1 X4.5224 Y23.1695
G1 X4.5270 Y23.1409
G1 X4.5323 Y23.1124
G1 X4.5383 Y23.0841
G1 X4.5450 Y23.0559
G1 X4.5523 Y23.0279
G1 X4.5604 Y23.0001
G1 X4.5692 Y22.9725
G1 X4.5786 Y22.9451
G1 X4.5887 Y22.9179
G1 X4.5994 Y22.8910
G1 X4.6108 Y22.8644
G1 X4.6229 Y22.8381
G1 X4.6356 Y22.8121
G1 X4.6489 Y22.7864
G1 X4.6629 Y22.7610
G1 X4.6775 Y22.7360
G1 X4.6927 Y22.7113
G1 X4.7085 Y22.6870
G1 X4.7249 Y22.6631
G1 X4.7418 Y22.6397
G1 X4.7594 Y22.6166
G1 X4.7825 Y22.5880
G1 X4.7559 Y22.5428
G1 X4.7419 Y22.5174
G1 X4.7286 Y22.4917
G1 X4.7159 Y22.4657
G1 X4.6828 Y22.3958
G1 X4.6708 Y22.3695
G1 X4.6594 Y22.3429
G1 X4.6486 Y22.3160
G1 X4.6385 Y22.2889
G1 X4.6125 Y22.2161
G1 X4.6031 Y22.1887
G1 X4.5943 Y22.1611
G1 X4.5862 Y22.1333
G1 X4.5789 Y22.1053
G1 X4.5601 Y22.0303
G1 X4.5534 Y22.0022
G1 X4.5474 Y21.9738
G1 X4.5421 Y21.9453
G1 X4.5375 Y21.9168
G1 X4.5262 Y21.8403
G1 X4.5223 Y21.8116
G1 X4.5191 Y21.7828
G1 X4.5166 Y21.7540
G1 X4.5148 Y21.7251
G1 X4.5110 Y21.6479
G1 X4.5100 Y21.6190
G1 X4.5096 Y21.5900
G1 X4.5100 Y21.5610
G1 X4.5110 Y21.5321
G1 X4.5148 Y21.4549
G1 X4.5166 Y21.4260
G1 X4.5191 Y21.3972
G1 X4.5223 Y21.3684
G1 X4.5262 Y21.3397
G1 X4.5375 Y21.2632
G1 X4.5421 Y21.2347
G1 X4.5474 Y21.2062
G1 X4.5534 Y21.1778
G1 X4.5601 Y21.1497
G1 X4.5789 Y21.0747
G1 X4.5862 Y21.0467
G1 X4.5943 Y21.0189
G1 X4.6031 Y20.9913
G1 X4.6125 Y20.9639
G1 X4.6385 Y20.8911
G1 X4.6486 Y20.8640
G1 X4.6594 Y20.8371
G1 X4.6708 Y20.8105
G1 X4.6828 Y20.7842
G1 X4.7159 Y20.7143
G1 X4.7286 Y20.6883
G1 X4.7419 Y20.6626
G1 X4.7559 Y20.6372
G1 X4.7705 Y20.6122
G1 X4.8102 Y20.5459
G1 X4.8254 Y20.5212
G1 X4.8412 Y20.4970
G1 X4.8576 Y20.4731
G1 X4.8745 Y20.4496
G1 X4.9205 Y20.3876
G1 X4.9381 Y20.3645
G1 X4.9562 Y20.3419
G1 X4.9746 Y20.3200
G1 X4.9562 Y20.2981
G1 X4.9381 Y20.2755
G1 X4.9205 Y20.2524
G1 X4.8745 Y20.1904
G1 X4.8576 Y20.1669
G1 X4.8412 Y20.1430
G1 X4.8254 Y20.1188
G1 X4.8102 Y20.0941
G1 X4.7705 Y20.0278
G1 X4.7559 Y20.0028
G1 X4.7419 Y19.9774
G1 X4.7286 Y19.9517
G1 X4.7159 Y19.9257
G1 X4.6828 Y19.8558
G1 X4.6708 Y19.8295
G1 X4.6594 Y19.8029
G1 X4.6486 Y19.7760
G1 X4.6385 Y19.7489
G1 X4.6125 Y19.6761
G1 X4.6031 Y19.6487
G1 X4.5943 Y19.6211
G1 X4.5862 Y19.5933
G1 X4.5789 Y19.5653
G1 X4.5601 Y19.4903
G1 X4.5534 Y19.4622
G1 X4.5474 Y19.4338
G1 X4.5421 Y19.4053
G1 X4.5375 Y19.3768
G1 X4.5262 Y19.3003
G1 X4.5223 Y19.2716
G1 X4.5191 Y19.2428
G1 X4.5166 Y19.2140
G1 X4.5148 Y19.1851
G1 X4.5110 Y19.1079
G1 X4.5100 Y19.0790
G1 X4.5096 Y19.0500
G1 X4.5100 Y19.0210
G1 X4.5110 Y18.9921
G1 X4.5148 Y18.9149
G1 X4.5166 Y18.8860
G1 X4.5191 Y18.8572
G1 X4.5223 Y18.8284
G1 X4.5262 Y18.7997
G1 X4.5375 Y18.7232
G1 X4.5421 Y18.6947
G1 X4.5474 Y18.6662
G1 X4.5534 Y18.6378
G1 X4.5601 Y18.6097
G1 X4.5789 Y18.5347
G1 X4.5862 Y18.5067
G1 X4.5943 Y18.4789
G1 X4.6031 Y18.4513
G1 X4.6125 Y18.4239
G1 X4.6385 Y18.3511
G1 X4.6486 Y18.3240
G1 X4.6594 Y18.2971
G1 X4.6708 Y18.2705
G1 X4.6828 Y18.2442
G1 X4.7159 Y18.1743
G1 X4.7286 Y18.1483
G1 X4.7419 Y18.1226
G1 X4.7559 Y18.0972
G1 X4.7705 Y18.0722
G1 X4.8102 Y18.0059
G1 X4.8254 Y17.9812
G1 X4.8412 Y17.9570
G1 X4.8576 Y17.9331
G1 X4.8745 Y17.9096
G1 X4.9205 Y17.8476
G1 X4.9381 Y17.8245
G1 X4.9562 Y17.8019
G1 X4.9746 Y17.7800
G1 X4.9562 Y17.7581
G1 X4.9381 Y17.7355
G1 X4.9205 Y17.7124
G1 X4.8745 Y17.6504
G1 X4.8576 Y17.6269
G1 X4.8412 Y17.6030
G1 X4.8254 Y17.5788
G1 X4.8102 Y17.5541
G1 X4.7705 Y17.4878
G1 X4.7559 Y17.4628
G1 X4.7419 Y17.4374
G1 X4.7286 Y17.4117
G1 X4.7159 Y17.3857
G1 X4.6828 Y17.3158
G1 X4.6708 Y17.2895
G1 X4.6594 Y17.2629
G1 X4.6486 Y17.2360
G1 X4.6385 Y17.2089
G1 X4.6125 Y17.1361
G1 X4.6031 Y17.1087
G1 X4.5943 Y17.0811
G1 X4.5862 Y17.0533
G1 X4.5789 Y17.0253
G1 X4.5601 Y16.9503
G1 X4.5534 Y16.9222
G1 X4.5474 Y16.8938
G1 X4.5421 Y16.8653
G1 X4.5375 Y16.8368
G1 X4.5262 Y16.7603
G1 X4.5223 Y16.7316
G1 X4.5191 Y16.7028
G1 X4.5166 Y16.6740
G1 X4.5148 Y16.6451
G1 X4.5110 Y16.5679
G1 X4.5100 Y16.5390
G1 X4.5096 Y16.5100
G1 X4.5100 Y16.4810
G1 X4.5110 Y16.4521
G1 X4.5148 Y16.3749
G1 X4.5166 Y16.3460
G1 X4.5191 Y16.3172
G1 X4.5223 Y16.2884
G1 X4.5262 Y16.2597
G1 X4.5375 Y16.1832
G1 X4.5421 Y16.1547
G1 X4.5474 Y16.1262
G1 X4.5534 Y16.0978
G1 X4.5601 Y16.0697
G1 X4.5789 Y15.9947
G1 X4.5862 Y15.9667
G1 X4.5943 Y15.9389
G1 X4.6031 Y15.9113
G1 X4.6125 Y15.8839
G1 X4.6385 Y15.8111
G1 X4.6486 Y15.7840
G1 X4.6594 Y15.7571
G1 X4.6708 Y15.7305
G1 X4.6828 Y15.7042
G1 X4.7159 Y15.6343
G1 X4.7286 Y15.6083
G1 X4.7419 Y15.5826
G1 X4.7559 Y15.5572
G1 X4.7705 Y15.5322
G1 X4.8102 Y15.4659
G1 X4.8254 Y15.4412
G1 X4.8412 Y15.4170
G1 X4.8576 Y15.3931
G1 X4.8745 Y15.3696
G1 X4.9205 Y15.3076
G1 X4.9381 Y15.2845
G1 X4.9562 Y15.2619
G1 X4.9746 Y15.2400
G1 X4.9562 Y15.2181
G1 X4.9381 Y15.1955
G1 X4.9205 Y15.1724
G1 X4.8745 Y15.1104
G1 X4.8576 Y15.0869
G1 X4.8412 Y15.0630
G1 X4.8254 Y15.0388
G1 X4.8102 Y15.0141
G1 X4.7705 Y14.9478
G1 X4.7559 Y14.9228
G1 X4.7419 Y14.8974
G1 X4.7286 Y14.8717
G1 X4.7159 Y14.8457
G1 X4.6828 Y14.7758
G1 X4.6708 Y14.7495
G1 X4.6594 Y14.7229
G1 X4.6486 Y14.6960
G1 X4.6385 Y14.6689
G1 X4.6125 Y14.5961
G1 X4.6031 Y14.5687
G1 X4.5943 Y14.5411
G1 X4.5862 Y14.5133
G1 X4.5789 Y14.4853
G1 X4.5601 Y14.4103
G1 X4.5534 Y14.3822
G1 X4.5474 Y14.3538
G1 X4.5421 Y14.3253
G1 X4.5375 Y14.2968
G1 X4.5262 Y14.2203
G1 X4.5223 Y14.1916
G1 X4.5191 Y14.1628
G1 X4.5166 Y14.1340
G1 X4.5148 Y14.1051
G1 X4.5110 Y14.0279
G1 X4.5100 Y13.9990
G1 X4.5096 Y13.9700
G1 X4.5100 Y13.9410
G1 X4.5110 Y13.9121
G1 X4.5148 Y13.8349
G1 X4.5166 Y13.8060
G1 X4.5191 Y13.7772
G1 X4.5223 Y13.7484
G1 X4.5262 Y13.7197
G1 X4.5375 Y13.6432
G1 X4.5421 Y13.6147
G1 X4.5474 Y13.5862
G1 X4.5534 Y13.5578
G1 X4.5601 Y13.5297
G1 X4.5789 Y13.4547
G1 X4.5862 Y13.4267
G1 X4.5943 Y13.3989
G1 X4.6031 Y13.3713
G1 X4.6125 Y13.3439
G1 X4.6385 Y13.2711
G1 X4.6486 Y13.2440
G1 X4.6594 Y13.2171
G1 X4.6708 Y13.1905
G1 X4.6828 Y13.1642
G1 X4.7159 Y13.0943
G1 X4.7286 Y13.0683
G1 X4.7419 Y13.0426
G1 X4.7559 Y13.0172
G1 X4.7705 Y12.9922
G1 X4.8102 Y12.9259
G1 X4.8254 Y12.9012
G1 X4.8412 Y12.8770
G1 X4.8576 Y12.8531
G1 X4.8745 Y12.8296
G1 X4.9205 Y12.7676
G1 X4.9381 Y12.7445
G1 X4.9562 Y12.7219
G1 X4.9746 Y12.7000
G1 X4.9562 Y12.6781
G1 X4.9381 Y12.6555
G1 X4.9205 Y12.6324
G1 X4.8745 Y12.5704
G1 X4.8576 Y12.5469
G1 X4.8412 Y12.5230
G1 X4.8254 Y12.4988
G1 X4.8102 Y12.4741
G1 X4.7705 Y12.4078
G1 X4.7559 Y12.3828
G1 X4.7419 Y12.3574
G1 X4.7286 Y12.3317
G1 X4.7159 Y12.3057
G1 X4.6828 Y12.2358
G1 X4.6708 Y12.2095
G1 X4.6594 Y12.1829
G1 X4.6486 Y12.1560
G1 X4.6385 Y12.1289
G1 X4.6125 Y12.0561
G1 X4.6031 Y12.0287
G1 X4.5943 Y12.0011
G1 X4.5862 Y11.9733
G1 X4.5789 Y11.9453
G1 X4.5601 Y11.8703
G1 X4.5534 Y11.8422
G1 X4.5474 Y11.8138
G1 X4.5421 Y11.7853
G1 X4.5375 Y11.7568
G1 X4.5262 Y11.6803
G1 X4.5223 Y11.6516
G1 X4.5191 Y11.6228
G1 X4.5166 Y11.5940
G1 X4.5148 Y11.5651
G1 X4.5110 Y11.4879
G1 X4.5100 Y11.4590
G1 X4.5096 Y11.4300
G1 X4.5100 Y11.4010
G1 X4.5110 Y11.3721
G1 X4.5148 Y11.2949
G1 X4.5166 Y11.2660
G1 X4.5191 Y11.2372
G1 X4.5223 Y11.2084
G1 X4.5262 Y11.1797
G1 X4.5375 Y11.1032
G1 X4.5421 Y11.0747
G1 X4.5474 Y11.0462
G1 X4.5534 Y11.0178
G1 X4.5601 Y10.9897
G1 X4.5789 Y10.9147
G1 X4.5862 Y10.8867
G1 X4.5943 Y10.8589
G1 X4.6031 Y10.8313
G1 X4.6125 Y10.8039
G1 X4.6385 Y10.7311
G1 X4.6486 Y10.7040
G1 X4.6594 Y10.6771
G1 X4.6708 Y10.6505
G1 X4.6828 Y10.6242
G1 X4.7159 Y10.5543
G1 X4.7286 Y10.5283
G1 X4.7419 Y10.5026
G1 X4.7559 Y10.4772
G1 X4.7705 Y10.4522
G1 X4.8102 Y10.3859
G1 X4.8254 Y10.3612
G1 X4.8412 Y10.3370
G1 X4.8576 Y10.3131
G1 X4.8745 Y10.2896
G1 X4.9205 Y10.2276
G1 X4.9381 Y10.2045
G1 X4.9562 Y10.1819
G1 X4.9746 Y10.1600
G1 X4.9562 Y10.1381
G1 X4.9381 Y10.1155
G1 X4.9205 Y10.0924
G1 X4.8745 Y10.0304
G1 X4.8576 Y10.0069
G1 X4.8412 Y9.9830
G1 X4.8254 Y9.9588
G1 X4.8102 Y9.9341
G1 X4.7705 Y9.8678
G1 X4.7559 Y9.8428
G1 X4.7419 Y9.8174
G1 X4.7286 Y9.7917
G1 X4.7159 Y9.7657
G1 X4.6828 Y9.6958
G1 X4.6708 Y9.6695
G1 X4.6594 Y9.6429
G1 X4.6486 Y9.6160
G1 X4.6385 Y9.5889
G1 X4.6125 Y9.5161
G1 X4.6031 Y9.4887
G1 X4.5943 Y9.4611
G1 X4.5862 Y9.4333
G1 X4.5789 Y9.4053
G1 X4.5601 Y9.3303
G1 X4.5534 Y9.3022
G1 X4.5474 Y9.2738
G1 X4.5421 Y9.2453
G1 X4.5375 Y9.2168
G1 X4.5262 Y9.1403
G1 X4.5223 Y9.1116
G1 X4.5191 Y9.0828
G1 X4.5166 Y9.0540
G1 X4.5148 Y9.0251
G1 X4.5110 Y8.9479
G1 X4.5100 Y8.9190
G1 X4.5096 Y8.8900
G1 X4.5100 Y8.8610
G1 X4.5110 Y8.8321
G1 X4.5148 Y8.7549
G1 X4.5166 Y8.7260
G1 X4.5191 Y8.6972
G1 X4.5223 Y8.6684
G1 X4.5262 Y8.6397
G1 X4.5375 Y8.5632
G1 X4.5421 Y8.5347
G1 X4.5474 Y8.5062
G1 X4.5534 Y8.4778
G1 X4.5601 Y8.4497
G1 X4.5789 Y8.3747
G1 X4.5862 Y8.3467
G1 X4.5943 Y8.3189
G1 X4.6031 Y8.2913
G1 X4.6125 Y8.2639
G1 X4.6385 Y8.1911
G1 X4.6486 Y8.1640
G1 X4.6594 Y8.1371
G1 X4.6708 Y8.1105
G1 X4.6828 Y8.0842
G1 X4.7159 Y8.0143
G1 X4.7286 Y7.9883
G1 X4.7419 Y7.9626
G1 X4.7559 Y7.9372
G1 X4.7705 Y7.9122
G1 X4.8102 Y7.8459
G1 X4.8254 Y7.8212
G1 X4.8412 Y7.7970
G1 X4.8576 Y7.7731
G1 X4.8745 Y7.7496
G1 X4.9205 Y7.6876
G1 X4.9381 Y7.6645
G1 X4.9562 Y7.6419
G1 X4.9746 Y7.6200
G1 X4.9562 Y7.5981
G1 X4.9381 Y7.5755
G1 X4.9205 Y7.5524
G1 X4.8745 Y7.4904
G1 X4.8576 Y7.4669
G1 X4.8412 Y7.4430
G1 X4.8254 Y7.4188
G1 X4.8102 Y7.3941
G1 X4.7705 Y7.3278
